; generated by SuperSlicer 2.2.53 on 2020-10-20 at 15:12:18 UTC

; 

; external perimeters extrusion width = 0.45mm
; perimeters extrusion width = 0.45mm
; infill extrusion width = 0.45mm
; solid infill extrusion width = 0.45mm
; top infill extrusion width = 0.40mm
; first layer extrusion width = 0.45mm

M107
G10 P0 R200 S210 ; sets the standby temperature
M140 S65 ; set bed temp
M190 S65 ; wait for bed temp

M104 S215 ; set extruder temp
G28 ; Home all axes

G92 E0 ; Reset Extruder
G1 X5 Y20 Z2.0 F3000.0 ; Move to start position
M109 S215 ; wait for extruder temp

G1 X10.1 Y20 Z0.28 F5000.0 ;Move to start position
G1 X10.1 Y200.0 Z0.28 F1500.0 E15 ;Draw the first line
G1 X10.4 Y200.0 Z0.28 F5000.0 ;Move to side a little
G1 X10.4 Y20 Z0.28 F1500.0 E30 ;Draw the second line
G92 E0 ; Reset Extruder
G21 ; set units to millimeters
G90 ; use absolute coordinates
M83 ; use relative distances for extrusion
; Filament gcode
;BEFORE_LAYER_CHANGE
G1 Z0.200000 F9000.000
G1 E-2.00000 F2400.00000
G1 Z1.600000 F9000.000
G1 X120.295 Y117.438
G1 Z0.200000
G1 E2.10000 F1200.00000
G1 F720.000
G1 X121.418 Y116.351 E0.05290
G1 X122.194 Y115.828 E0.03170
G1 X123.118 Y115.373 E0.03486
G1 X124.062 Y115.063 E0.03360
G1 X125.081 Y114.880 E0.03508
G1 X150.011 Y113.390 E0.84534
G1 X152.681 Y113.560 E0.09058
G1 X155.323 Y114.084 E0.09115
G1 X157.891 Y114.956 E0.09180
G1 X160.319 Y116.162 E0.09176
G1 X162.579 Y117.690 E0.09235
G1 X164.607 Y119.498 E0.09195
G1 X166.336 Y121.505 E0.08967
G1 X167.778 Y123.702 E0.08897
G1 X168.375 Y125.161 E0.05336
G1 X168.621 Y126.663 E0.05152
G1 X168.528 Y128.168 E0.05105
G1 X168.099 Y129.630 E0.05156
G1 X167.241 Y131.193 E0.06036
G1 X165.642 Y133.518 E0.09551
G1 X164.251 Y134.991 E0.06857
G1 X162.532 Y136.347 E0.07411
G1 X161.177 Y137.309 E0.05624
G1 X159.820 Y138.119 E0.05350
G1 X158.282 Y138.876 E0.05803
G1 X156.776 Y139.470 E0.05479
G1 X155.104 Y139.974 E0.05912
G1 X153.531 Y140.311 E0.05446
G1 X151.941 Y140.523 E0.05428
G1 X150.148 Y140.610 E0.06077
G1 X124.873 Y139.095 E0.85706
G1 X123.523 Y138.777 E0.04696
G1 X122.218 Y138.187 E0.04847
G1 X121.107 Y137.394 E0.04619
G1 X120.131 Y136.357 E0.04820
G1 X119.588 Y135.544 E0.03310
G1 X119.160 Y134.661 E0.03322
G1 X118.845 Y133.698 E0.03430
G1 X118.663 Y132.679 E0.03502
G1 X118.556 Y126.964 E0.19348
G1 X118.632 Y121.682 E0.17880
G1 X118.878 Y120.177 E0.05162
G1 X119.450 Y118.710 E0.05330
G1 X120.262 Y117.488 E0.04965
G1 X120.605 Y117.721 F9000.000
G1 F720.000
G1 X120.673 Y117.621 E0.00409
G1 X121.708 Y116.642 E0.04823
G1 X122.513 Y116.114 E0.03258
G1 X123.297 Y115.740 E0.02939
G1 X124.179 Y115.454 E0.03139
G1 X125.144 Y115.283 E0.03318
G1 X150.013 Y113.797 E0.84330
G1 X152.631 Y113.964 E0.08877
G1 X155.219 Y114.477 E0.08931
G1 X157.731 Y115.330 E0.08980
G1 X160.115 Y116.515 E0.09011
G1 X162.331 Y118.012 E0.09052
G1 X164.322 Y119.788 E0.09033
G1 X166.015 Y121.755 E0.08785
G1 X167.432 Y123.918 E0.08750
G1 X167.988 Y125.290 E0.05012
G1 X168.215 Y126.703 E0.04843
G1 X168.118 Y128.146 E0.04895
G1 X167.688 Y129.558 E0.04999
G1 X166.881 Y131.000 E0.05589
G1 X165.295 Y133.299 E0.09457
G1 X163.946 Y134.717 E0.06623
G1 X162.089 Y136.173 E0.07987
G1 X160.677 Y137.146 E0.05805
G1 X159.286 Y137.942 E0.05424
G1 X157.877 Y138.608 E0.05278
G1 X156.309 Y139.198 E0.05669
G1 X154.769 Y139.638 E0.05421
G1 X153.216 Y139.951 E0.05364
G1 X151.529 Y140.148 E0.05748
G1 X149.976 Y140.203 E0.05261
G1 X124.938 Y138.693 E0.84904
G1 X123.625 Y138.382 E0.04565
G1 X122.408 Y137.826 E0.04530
G1 X121.357 Y137.072 E0.04379
G1 X120.424 Y136.070 E0.04634
G1 X119.921 Y135.305 E0.03101
G1 X119.513 Y134.446 E0.03218
G1 X119.223 Y133.531 E0.03250
G1 X119.055 Y132.508 E0.03507
G1 X118.963 Y126.955 E0.18798
G1 X119.039 Y121.696 E0.17803
G1 X119.274 Y120.275 E0.04878
G1 X119.822 Y118.878 E0.05078
G1 X120.572 Y117.771 E0.04528
G1 E-2.00000 F2400.00000
G1 Z1.600000 F9000.000
G1 X125.043 Y120.927
G1 Z0.200000
G1 E2.10000 F1200.00000
G1 F720.000
G1 X124.901 Y121.042 E0.00619
G1 X124.765 Y121.191 E0.00681
G1 X124.664 Y121.337 E0.00600
G1 X124.569 Y121.529 E0.00725
G1 X124.507 Y121.719 E0.00678
G1 X124.456 Y122.058 E0.01160
G1 X124.451 Y125.021 E0.10029
G1 X124.392 Y126.946 E0.06520
G1 X124.451 Y128.780 E0.06210
G1 X124.453 Y131.869 E0.10455
G1 X124.505 Y132.271 E0.01373
G1 X124.630 Y132.600 E0.01190
G1 X124.717 Y132.745 E0.00575
G1 X124.836 Y132.893 E0.00643
G1 X125.107 Y133.114 E0.01183
G1 X125.414 Y133.255 E0.01144
G1 X125.586 Y133.300 E0.00602
G1 X125.799 Y133.327 E0.00728
G1 X149.163 Y134.746 E0.79229
G1 X149.827 Y134.772 E0.02249
G1 X150.780 Y134.756 E0.03225
G1 X151.679 Y134.683 E0.03054
G1 X152.539 Y134.560 E0.02942
G1 X153.487 Y134.363 E0.03277
G1 X154.347 Y134.126 E0.03020
G1 X155.171 Y133.846 E0.02945
G1 X156.053 Y133.481 E0.03231
G1 X156.930 Y133.047 E0.03314
G1 X157.487 Y132.733 E0.02163
G1 X158.490 Y132.081 E0.04052
G1 X158.976 Y131.720 E0.02049
G1 X160.032 Y130.870 E0.04587
G1 X160.318 Y130.679 E0.01162
G1 X161.140 Y129.804 E0.04065
G1 X161.369 Y129.427 E0.01491
G1 X162.223 Y128.206 E0.05046
G1 X162.692 Y127.430 E0.03067
G1 X162.770 Y127.198 E0.00830
G1 X162.792 Y126.971 E0.00772
G1 X162.759 Y126.753 E0.00748
G1 X162.689 Y126.564 E0.00680
G1 X162.207 Y125.770 E0.03146
G1 X161.678 Y125.021 E0.03103
G1 X161.063 Y124.260 E0.03311
G1 X160.459 Y123.602 E0.03023
G1 X159.797 Y122.967 E0.03108
G1 X159.007 Y122.304 E0.03488
G1 X158.103 Y121.654 E0.03770
G1 X157.390 Y121.210 E0.02845
G1 X156.488 Y120.726 E0.03463
G1 X155.647 Y120.343 E0.03128
G1 X154.599 Y119.954 E0.03783
G1 X153.808 Y119.719 E0.02793
G1 X152.733 Y119.475 E0.03734
G1 X151.926 Y119.347 E0.02765
G1 X151.118 Y119.264 E0.02750
G1 X150.070 Y119.227 E0.03549
G1 X149.178 Y119.253 E0.03019
G1 X125.803 Y120.673 E0.79268
G1 X125.487 Y120.723 E0.01082
G1 X125.200 Y120.833 E0.01041
G1 X125.094 Y120.896 E0.00417
G1 X125.063 Y121.109 F9000.000
G1 E-2.00000 F2400.00000
G1 Z1.200000 F9000.000
G1 X128.087 Y128.607
G1 Z0.200000
G1 E2.10000 F1200.00000
G1 F600.000
G1 X128.245 Y128.420 E0.00829
G1 X128.374 Y128.323 E0.00544
G1 X128.530 Y128.253 E0.00581
G1 X128.779 Y128.211 E0.00856
G1 X129.111 Y128.265 E0.01140
G1 X129.284 Y128.342 E0.00641
G1 X129.431 Y128.445 E0.00604
G1 X129.545 Y128.565 E0.00563
G1 X129.639 Y128.720 E0.00613
G1 X129.694 Y128.951 E0.00802
G1 X129.691 Y129.081 E0.00443
G1 X129.611 Y129.302 E0.00796
G1 X129.461 Y129.566 E0.01027
G1 X129.256 Y129.808 E0.01073
G1 X129.008 Y130.009 E0.01081
G1 X128.721 Y130.169 E0.01112
G1 X128.394 Y130.285 E0.01174
G1 X128.037 Y130.355 E0.01232
G1 X127.631 Y130.381 E0.01378
G1 X127.195 Y130.358 E0.01478
G1 X126.924 Y130.313 E0.00929
G1 X126.637 Y130.233 E0.01009
G1 X126.392 Y130.137 E0.00893
G1 X125.961 Y129.889 E0.01682
G1 X125.667 Y129.646 E0.01291
G1 X125.489 Y129.457 E0.00879
G1 X125.263 Y129.153 E0.01282
G1 X125.134 Y128.925 E0.00888
G1 X125.025 Y128.685 E0.00891
G1 X124.939 Y128.427 E0.00920
G1 X124.873 Y128.146 E0.00976
G1 X124.831 Y127.838 E0.01052
G1 X124.798 Y126.990 E0.02872
G1 X124.829 Y126.114 E0.02967
G1 X124.905 Y125.630 E0.01658
G1 X124.991 Y125.339 E0.01027
G1 X125.099 Y125.077 E0.00962
G1 X125.293 Y124.733 E0.01335
G1 X125.453 Y124.516 E0.00913
G1 X125.708 Y124.245 E0.01260
G1 X125.908 Y124.079 E0.00880
G1 X126.223 Y123.877 E0.01264
G1 X126.453 Y123.766 E0.00864
G1 X126.693 Y123.678 E0.00867
G1 X127.004 Y123.601 E0.01085
G1 X127.324 Y123.558 E0.01092
G1 X127.604 Y123.548 E0.00950
G1 X127.966 Y123.565 E0.01226
G1 X128.359 Y123.635 E0.01350
G1 X128.699 Y123.753 E0.01220
G1 X129.086 Y123.977 E0.01513
G1 X129.349 Y124.202 E0.01172
G1 X129.560 Y124.481 E0.01185
G1 X129.630 Y124.641 E0.00591
G1 X129.668 Y124.818 E0.00614
G1 X129.643 Y125.101 E0.00960
G1 X129.533 Y125.348 E0.00916
G1 X129.364 Y125.544 E0.00874
G1 X129.209 Y125.649 E0.00635
G1 X128.967 Y125.723 E0.00858
G1 X128.719 Y125.710 E0.00838
G1 X128.465 Y125.630 E0.00902
G1 X127.829 Y125.264 E0.02485
G1 X127.695 Y125.213 E0.00484
G1 X127.599 Y125.198 E0.00329
G1 X127.352 Y125.210 E0.00839
G1 X127.163 Y125.261 E0.00661
G1 X126.922 Y125.385 E0.00917
G1 X126.787 Y125.500 E0.00602
G1 X126.633 Y125.708 E0.00873
G1 X126.537 Y125.914 E0.00770
G1 X126.461 Y126.174 E0.00917
G1 X126.410 Y126.496 E0.01105
G1 X126.387 Y126.922 E0.01444
G1 X126.405 Y127.388 E0.01576
G1 X126.453 Y127.721 E0.01141
G1 X126.532 Y128.003 E0.00990
G1 X126.634 Y128.225 E0.00827
G1 X126.787 Y128.429 E0.00864
G1 X126.980 Y128.579 E0.00826
G1 X127.230 Y128.689 E0.00924
G1 X127.435 Y128.731 E0.00710
G1 X127.720 Y128.730 E0.00965
G1 X127.926 Y128.687 E0.00711
G1 X128.036 Y128.639 E0.00408
G1 X128.036 Y128.368 F9000.000
G1 E-2.00000 F2400.00000
G1 Z1.200000 F9000.000
G1 X133.571 Y125.315
G1 Z0.200000
G1 E2.10000 F1200.00000
G1 F600.000
G1 X133.551 Y125.459 E0.00493
G1 X133.567 Y129.373 E0.13249
G1 X133.518 Y129.647 E0.00940
G1 X133.418 Y129.878 E0.00852
G1 X133.245 Y130.072 E0.00879
G1 X133.024 Y130.193 E0.00855
G1 X132.700 Y130.237 E0.01106
G1 X132.509 Y130.212 E0.00651
G1 X132.340 Y130.156 E0.00604
G1 X132.195 Y130.075 E0.00564
G1 X132.075 Y129.959 E0.00562
G1 X131.991 Y129.816 E0.00563
G1 X131.947 Y129.662 E0.00542
G1 X131.935 Y129.419 E0.00824
G1 X131.974 Y128.924 E0.01679
G1 X131.957 Y126.143 E0.09416
G1 X131.993 Y125.582 E0.01901
G1 X131.974 Y125.445 E0.00468
G1 X131.910 Y125.363 E0.00353
G1 X131.778 Y125.306 E0.00486
G1 X131.549 Y125.294 E0.00777
G1 X130.812 Y125.370 E0.02506
G1 X130.577 Y125.327 E0.00811
G1 X130.427 Y125.255 E0.00562
G1 X130.297 Y125.146 E0.00576
G1 X130.161 Y124.944 E0.00824
G1 X130.085 Y124.703 E0.00854
G1 X130.069 Y124.514 E0.00641
G1 X130.108 Y124.257 E0.00882
G1 X130.219 Y124.020 E0.00886
G1 X130.395 Y123.834 E0.00867
G1 X130.590 Y123.731 E0.00746
G1 X130.827 Y123.688 E0.00816
G1 X131.487 Y123.731 E0.02237
G1 X134.805 Y123.720 E0.11231
G1 X134.976 Y123.749 E0.00587
G1 X135.180 Y123.841 E0.00759
G1 X135.312 Y123.961 E0.00603
G1 X135.431 Y124.173 E0.00821
G1 X135.483 Y124.504 E0.01137
G1 X135.437 Y124.806 E0.01033
G1 X135.315 Y125.034 E0.00875
G1 X135.075 Y125.218 E0.01025
G1 X134.835 Y125.293 E0.00850
G1 X134.491 Y125.330 E0.01173
G1 X133.631 Y125.316 E0.02911
G1 X133.631 Y125.448 F9000.000
G1 E-2.00000 F2400.00000
G1 Z1.200000 F9000.000
G1 X139.111 Y126.469
G1 Z0.200000
G1 E2.10000 F1200.00000
G1 F600.000
G1 X139.028 Y126.506 E0.00307
G1 X139.313 Y126.639 E0.01063
G1 X139.692 Y127.001 E0.01773
G1 X139.909 Y127.515 E0.01891
G1 X140.004 Y127.896 E0.01327
G1 X140.034 Y128.121 E0.00771
G1 X140.012 Y128.552 E0.01458
G1 X139.888 Y128.996 E0.01562
G1 X139.727 Y129.329 E0.01253
G1 X139.447 Y129.709 E0.01596
G1 X139.101 Y130.006 E0.01545
G1 X138.693 Y130.222 E0.01560
G1 X138.253 Y130.342 E0.01544
G1 X137.864 Y130.380 E0.01326
G1 X137.438 Y130.374 E0.01440
G1 X137.055 Y130.321 E0.01309
G1 X136.737 Y130.232 E0.01119
G1 X136.459 Y130.107 E0.01030
G1 X136.228 Y129.944 E0.00958
G1 X136.046 Y129.733 E0.00942
G1 X135.935 Y129.505 E0.00859
G1 X135.877 Y129.237 E0.00927
G1 X135.893 Y128.966 E0.00920
G1 X135.987 Y128.724 E0.00878
G1 X136.157 Y128.534 E0.00864
G1 X136.446 Y128.392 E0.01090
G1 X136.799 Y128.360 E0.01200
G1 X137.117 Y128.431 E0.01104
G1 X137.344 Y128.556 E0.00875
G1 X137.690 Y128.812 E0.01457
G1 X137.813 Y128.843 E0.00431
G1 X137.958 Y128.811 E0.00499
G1 X138.107 Y128.724 E0.00584
G1 X138.216 Y128.602 E0.00556
G1 X138.283 Y128.446 E0.00573
G1 X138.300 Y128.275 E0.00583
G1 X138.263 Y128.100 E0.00604
G1 X138.156 Y127.902 E0.00764
G1 X138.033 Y127.761 E0.00632
G1 X137.885 Y127.643 E0.00643
G1 X137.720 Y127.559 E0.00624
G1 X137.520 Y127.502 E0.00706
G1 X137.102 Y127.428 E0.01437
G1 X136.879 Y127.342 E0.00807
G1 X136.700 Y127.194 E0.00788
G1 X136.613 Y127.045 E0.00584
G1 X136.565 Y126.882 E0.00573
G1 X136.561 Y126.633 E0.00845
G1 X136.625 Y126.376 E0.00897
G1 X136.710 Y126.203 E0.00653
G1 X136.883 Y126.004 E0.00889
G1 X137.163 Y125.865 E0.01060
G1 X137.719 Y125.755 E0.01918
G1 X137.857 Y125.675 E0.00541
G1 X137.936 Y125.591 E0.00390
G1 X138.004 Y125.426 E0.00604
G1 X137.993 Y125.303 E0.00420
G1 X137.960 Y125.224 E0.00288
G1 X137.913 Y125.167 E0.00250
G1 X137.834 Y125.119 E0.00315
G1 X137.648 Y125.110 E0.00628
G1 X137.460 Y125.173 E0.00674
G1 X136.996 Y125.466 E0.01856
G1 X136.772 Y125.542 E0.00801
G1 X136.596 Y125.547 E0.00595
G1 X136.370 Y125.473 E0.00807
G1 X136.141 Y125.294 E0.00982
G1 X135.982 Y125.073 E0.00921
G1 X135.888 Y124.817 E0.00925
G1 X135.882 Y124.567 E0.00847
G1 X135.955 Y124.336 E0.00819
G1 X136.101 Y124.130 E0.00852
G1 X136.309 Y123.948 E0.00937
G1 X136.583 Y123.787 E0.01076
G1 X136.900 Y123.663 E0.01152
G1 X137.245 Y123.585 E0.01196
G1 X137.564 Y123.550 E0.01089
G1 X137.994 Y123.551 E0.01454
G1 X138.287 Y123.583 E0.00996
G1 X138.628 Y123.656 E0.01181
G1 X138.845 Y123.734 E0.00781
G1 X139.125 Y123.885 E0.01079
G1 X139.297 Y124.017 E0.00732
G1 X139.507 Y124.244 E0.01049
G1 X139.666 Y124.504 E0.01032
G1 X139.757 Y124.782 E0.00988
G1 X139.790 Y125.080 E0.01014
G1 X139.776 Y125.441 E0.01223
G1 X139.672 Y125.920 E0.01659
G1 X139.330 Y126.326 E0.01800
G1 X139.161 Y126.436 E0.00683
G1 X139.106 Y126.560 F9000.000
G1 E-2.00000 F2400.00000
G1 Z1.200000 F9000.000
G1 X140.965 Y123.966
G1 Z0.200000
G1 E2.10000 F1200.00000
G1 F600.000
G1 X141.100 Y123.861 E0.00579
G1 X141.405 Y123.743 E0.01107
G1 X141.725 Y123.709 E0.01090
G1 X143.348 Y123.746 E0.05493
G1 X143.945 Y123.833 E0.02043
G1 X144.402 Y123.975 E0.01622
G1 X144.790 Y124.191 E0.01503
G1 X145.108 Y124.466 E0.01422
G1 X145.413 Y124.851 E0.01664
G1 X145.654 Y125.310 E0.01752
G1 X145.752 Y125.573 E0.00951
G1 X145.858 Y125.986 E0.01446
G1 X145.937 Y126.627 E0.02183
G1 X145.944 Y126.985 E0.01213
G1 X145.922 Y127.351 E0.01241
G1 X145.817 Y127.861 E0.01764
G1 X145.696 Y128.140 E0.01029
G1 X145.569 Y128.518 E0.01351
G1 X145.455 Y128.764 E0.00915
G1 X145.324 Y128.988 E0.00879
G1 X145.119 Y129.255 E0.01140
G1 X144.997 Y129.461 E0.00809
G1 X144.890 Y129.577 E0.00533
G1 X144.602 Y129.813 E0.01261
G1 X144.277 Y129.983 E0.01241
G1 X143.813 Y130.119 E0.01637
G1 X143.381 Y130.182 E0.01480
G1 X142.852 Y130.209 E0.01793
G1 X142.037 Y130.201 E0.02757
G1 X141.509 Y130.244 E0.01794
G1 X141.279 Y130.201 E0.00793
G1 X141.129 Y130.120 E0.00574
G1 X141.010 Y130.012 E0.00546
G1 X140.887 Y129.811 E0.00794
G1 X140.813 Y129.561 E0.00886
G1 X140.787 Y129.269 E0.00991
G1 X140.804 Y128.664 E0.02048
G1 X140.809 Y125.054 E0.12219
G1 X140.771 Y124.594 E0.01563
G1 X140.775 Y124.340 E0.00860
G1 X140.859 Y124.100 E0.00863
G1 X140.928 Y124.013 E0.00375
G1 X140.929 Y123.799 F9000.000
G1 E-2.00000 F2400.00000
G1 Z1.200000 F9000.000
G1 X145.551 Y129.801
G1 Z0.200000
G1 E2.10000 F1200.00000
G1 F600.000
G1 X145.526 Y129.655 E0.00504
G1 X145.548 Y129.250 E0.01374
G1 X145.586 Y129.042 E0.00713
G1 X145.660 Y128.840 E0.00731
G1 X145.770 Y128.653 E0.00733
G1 X145.908 Y128.492 E0.00720
G1 X146.216 Y128.220 E0.01390
G1 X146.439 Y128.115 E0.00834
G1 X146.667 Y128.067 E0.00788
G1 X146.903 Y128.053 E0.00799
G1 X147.139 Y128.097 E0.00815
G1 X147.361 Y128.181 E0.00803
G1 X147.562 Y128.307 E0.00802
G1 X147.737 Y128.471 E0.00813
G1 X147.870 Y128.667 E0.00801
G1 X147.968 Y128.882 E0.00800
G1 X148.014 Y129.122 E0.00829
G1 X147.983 Y129.525 E0.01366
G1 X147.906 Y129.931 E0.01398
G1 X147.797 Y130.150 E0.00829
G1 X147.568 Y130.405 E0.01163
G1 X147.373 Y130.540 E0.00800
G1 X147.037 Y130.662 E0.01211
G1 X146.798 Y130.690 E0.00815
G1 X146.563 Y130.674 E0.00796
G1 X146.336 Y130.618 E0.00793
G1 X146.120 Y130.520 E0.00803
G1 X145.928 Y130.384 E0.00797
G1 X145.763 Y130.215 E0.00797
G1 X145.689 Y130.101 E0.00460
G1 X145.577 Y129.856 E0.00915
G1 X145.408 Y129.762 F9000.000
G1 E-2.00000 F2400.00000
G1 Z1.200000 F9000.000
G1 X159.068 Y128.810
G1 Z0.200000
G1 E2.10000 F1200.00000
G1 F600.000
G1 X159.381 Y128.766 E0.01070
G1 X159.503 Y128.831 E0.00465
G1 X159.725 Y128.750 E0.00801
G1 X159.896 Y128.794 E0.00598
G1 X160.216 Y128.817 E0.01086
G1 X160.451 Y128.929 E0.00880
G1 X160.621 Y129.050 E0.00705
G1 X160.736 Y129.193 E0.00622
G1 X160.781 Y129.435 E0.00834
G1 X160.751 Y129.748 E0.01064
G1 X160.706 Y129.904 E0.00550
G1 X160.598 Y130.082 E0.00705
G1 X160.426 Y130.211 E0.00728
G1 X159.835 Y130.364 E0.02066
G1 X159.230 Y130.400 E0.02051
