; generated by PrusaSlicer 2.2.0+win64 on 2020-10-20 at 09:20:34 UTC

; 

; external perimeters extrusion width = 0.45mm
; perimeters extrusion width = 0.45mm
; infill extrusion width = 0.45mm
; solid infill extrusion width = 0.45mm
; top infill extrusion width = 0.40mm
; first layer extrusion width = 0.45mm

M107
M140 S65 ; set bed temp
M190 S65 ; wait for bed temp

M104 S215 ; set extruder temp
G28 ; Home all axes

G92 E0 ; Reset Extruder
G1 X5 Y20 Z2.0 F3000.0 ; Move to start position
M109 S215 ; wait for extruder temp

G1 X10.1 Y20 Z0.28 F5000.0 ;Move to start position
G1 X10.1 Y200.0 Z0.28 F1500.0 E15 ;Draw the first line

G1 X10.4 Y200.0 Z0.28 F5000.0 ;Move to side a little
G1 X10.4 Y20 Z0.28 F1500.0 E30 ;Draw the second line
G92 E0 ; Reset Extruder
G21 ; set units to millimeters
G90 ; use absolute coordinates
M83 ; use relative distances for extrusion
;BEFORE_LAYER_CHANGE
G1 Z0.200 F9000.000
G1 E-2.00000 F2400.00000
G1 Z0.800 F9000.000
G1 X130.546 Y108.266
G1 Z0.200
G1 E2.10000 F1200.00000
G1 F720.000
G1 X131.390 Y107.445 E0.03986
G1 X132.382 Y106.811 E0.03986
G1 X133.482 Y106.389 E0.03986
G1 X134.649 Y106.198 E0.04006
G1 X165.005 Y106.187 E1.02748
G1 X166.059 Y106.285 E0.03584
G1 X167.078 Y106.572 E0.03584
G1 X168.028 Y107.039 E0.03584
G1 X168.878 Y107.671 E0.03584
G1 X169.599 Y108.446 E0.03584
G1 X170.168 Y109.340 E0.03584
G1 X170.563 Y110.316 E0.03564
G1 X170.776 Y111.353 E0.03584
G1 X170.809 Y142.219 E1.04478
G1 X170.694 Y143.170 E0.03243
G1 X170.424 Y144.089 E0.03243
G1 X170.007 Y144.952 E0.03243
G1 X169.454 Y145.734 E0.03243
G1 X168.558 Y146.596 E0.04206
G1 X167.506 Y147.244 E0.04186
G1 X166.339 Y147.656 E0.04186
G1 X165.106 Y147.812 E0.04206
G1 X134.769 Y147.808 E1.02688
G1 X133.818 Y147.691 E0.03243
G1 X132.905 Y147.422 E0.03223
G1 X132.048 Y147.007 E0.03223
G1 X131.266 Y146.454 E0.03243
G1 X130.404 Y145.558 E0.04206
G1 X129.755 Y144.506 E0.04186
G1 X129.344 Y143.339 E0.04186
G1 X129.188 Y142.106 E0.04206
G1 X129.192 Y111.769 E1.02688
G1 X129.309 Y110.818 E0.03243
G1 X129.578 Y109.905 E0.03223
G1 X129.993 Y109.048 E0.03223
G1 X130.511 Y108.315 E0.03040
G1 E-2.00000 F2400.00000
G1 Z0.800 F9000.000
G1 X131.667 Y107.745
G1 Z0.200
G1 E2.10000 F1200.00000
G1 F720.000
G1 X132.593 Y107.160 E0.03708
G1 X133.618 Y106.774 E0.03708
G1 X134.700 Y106.603 E0.03708
G1 X165.004 Y106.594 E1.02576
G1 X165.987 Y106.685 E0.03340
G1 X166.936 Y106.954 E0.03340
G1 X167.822 Y107.390 E0.03340
G1 X168.617 Y107.983 E0.03359
G1 X169.287 Y108.708 E0.03340
G1 X169.814 Y109.542 E0.03340
G1 X170.181 Y110.458 E0.03340
G1 X170.376 Y111.431 E0.03359
G1 X170.402 Y142.200 E1.04148
G1 X170.294 Y143.094 E0.03049
G1 X170.038 Y143.958 E0.03049
G1 X169.643 Y144.767 E0.03049
G1 X169.122 Y145.496 E0.03030
G1 X168.292 Y146.287 E0.03882
G1 X167.314 Y146.885 E0.03882
G1 X166.226 Y147.265 E0.03901
G1 X165.087 Y147.405 E0.03882
G1 X134.795 Y147.402 E1.02538
G1 X133.906 Y147.294 E0.03030
G1 X133.042 Y147.038 E0.03049
G1 X132.233 Y146.643 E0.03049
G1 X131.504 Y146.122 E0.03030
G1 X130.713 Y145.292 E0.03882
G1 X130.115 Y144.314 E0.03882
G1 X129.735 Y143.226 E0.03901
G1 X129.595 Y142.087 E0.03882
G1 X129.598 Y111.795 E1.02538
G1 X129.706 Y110.906 E0.03030
G1 X129.962 Y110.042 E0.03049
G1 X130.357 Y109.233 E0.03049
G1 X130.878 Y108.504 E0.03030
G1 X131.624 Y107.786 E0.03505
G1 E-2.00000 F2400.00000
G1 Z0.800 F9000.000
G1 X135.326 Y112.326
G1 Z0.200
G1 E2.10000 F1200.00000
G1 F720.000
G1 X164.674 Y112.326 E0.99337
G1 X164.674 Y141.674 E0.99337
G1 X135.326 Y141.674 E0.99337
G1 X135.326 Y112.386 E0.99134
;BEFORE_LAYER_CHANGE
G1 Z0.400 F9000.000
M104 S210 ; set temperature
M140 S60 ; set bed temperature
G1 X135.226 Y112.386
G1 F1429
G1 X135.226 Y112.226 E0.00541
G1 X164.774 Y112.226 E1.00014
G1 X164.774 Y141.774 E1.00014
G1 X135.226 Y141.774 E1.00014
G1 X135.226 Y112.446 E0.99269
;BEFORE_LAYER_CHANGE
G1 Z0.600 F9000.000
G1 X135.226 Y112.226
G1 F1429
G1 X164.774 Y112.226 E1.00014
G1 X164.774 Y141.774 E1.00014
G1 X135.226 Y141.774 E1.00014
G1 X135.226 Y112.286 E0.99811
M106 S252.45
;BEFORE_LAYER_CHANGE
G1 Z0.800 F9000.000
G1 X135.226 Y112.286
G1 F1430
G1 X135.226 Y112.226 E0.00203
G1 X164.774 Y112.226 E1.00014
G1 X164.774 Y141.774 E1.00014
G1 X135.226 Y141.774 E1.00014
G1 X135.226 Y112.346 E0.99608

;BEFORE_LAYER_CHANGE
G1 Z1.000 F9000.000
G1 X135.226 Y112.346
G1 F1430
G1 X135.226 Y112.226 E0.00406
G1 X164.774 Y112.226 E1.00014
G1 X164.774 Y141.774 E1.00014
G1 X135.226 Y141.774 E1.00014
G1 X135.226 Y112.406 E0.99404
;BEFORE_LAYER_CHANGE
G1 Z1.200 F9000.000
G1 F1428
G1 X135.226 Y112.226 E0.00609
G1 X164.774 Y112.226 E1.00014
G1 X164.774 Y141.774 E1.00014
G1 X135.226 Y141.774 E1.00014
G1 X135.226 Y112.466 E0.99201
;BEFORE_LAYER_CHANGE
G1 Z1.400 F9000.000
G1 X135.226 Y112.226
G1 F1429
G1 X164.774 Y112.226 E1.00014
G1 X164.774 Y141.774 E1.00014
G1 X135.226 Y141.774 E1.00014
G1 X135.226 Y112.286 E0.99811
;BEFORE_LAYER_CHANGE
G1 Z1.600 F9000.000
G1 X135.226 Y112.286
G1 F1430
G1 X135.226 Y112.226 E0.00203
G1 X164.774 Y112.226 E1.00014
G1 X164.774 Y141.774 E1.00014
G1 X135.226 Y141.774 E1.00014
G1 X135.226 Y112.346 E0.99608
;BEFORE_LAYER_CHANGE
G1 Z1.800 F9000.000
G1 X135.226 Y112.346
G1 F1430
G1 X135.226 Y112.226 E0.00406
G1 X164.774 Y112.226 E1.00014
G1 X164.774 Y141.774 E1.00014
G1 X135.226 Y141.774 E1.00014
G1 X135.226 Y112.406 E0.99404
;BEFORE_LAYER_CHANGE
G1 Z2.000 F9000.000
G1 F1428
G1 X135.226 Y112.226 E0.00609
G1 X164.774 Y112.226 E1.00014
G1 X164.774 Y141.774 E1.00014
G1 X135.226 Y141.774 E1.00014
G1 X135.226 Y112.466 E0.99201
;BEFORE_LAYER_CHANGE
G1 Z2.200 F9000.000
G1 X135.226 Y112.226
G1 F1429
G1 X164.774 Y112.226 E1.00014
G1 X164.774 Y141.774 E1.00014
G1 X135.226 Y141.774 E1.00014
G1 X135.226 Y112.286 E0.99811
;BEFORE_LAYER_CHANGE
G1 Z2.400 F9000.000
G1 X135.226 Y112.286
G1 F1430
G1 X135.226 Y112.226 E0.00203
G1 X164.774 Y112.226 E1.00014
G1 X164.774 Y141.774 E1.00014
G1 X135.226 Y141.774 E1.00014
G1 X135.226 Y112.346 E0.99608
;BEFORE_LAYER_CHANGE
G1 Z2.600 F9000.000
G1 X135.226 Y112.346
G1 F1430
G1 X135.226 Y112.226 E0.00406
G1 X164.774 Y112.226 E1.00014
G1 X164.774 Y141.774 E1.00014
G1 X135.226 Y141.774 E1.00014
G1 X135.226 Y112.406 E0.99404
;BEFORE_LAYER_CHANGE
G1 Z2.800 F9000.000
G1 F1428
G1 X135.226 Y112.226 E0.00609
G1 X164.774 Y112.226 E1.00014
G1 X164.774 Y141.774 E1.00014
G1 X135.226 Y141.774 E1.00014
G1 X135.226 Y112.466 E0.99201
;BEFORE_LAYER_CHANGE
G1 Z3.000 F9000.000
G1 X135.226 Y112.226
G1 F1429
G1 X164.774 Y112.226 E1.00014
G1 X164.774 Y141.774 E1.00014
G1 X135.226 Y141.774 E1.00014
G1 X135.226 Y112.286 E0.99811
;BEFORE_LAYER_CHANGE
G1 Z3.200 F9000.000
G1 X135.226 Y112.286
G1 F1430
G1 X135.226 Y112.226 E0.00203
G1 X164.774 Y112.226 E1.00014
G1 X164.774 Y141.774 E1.00014
G1 X135.226 Y141.774 E1.00014
G1 X135.226 Y112.346 E0.99608

;BEFORE_LAYER_CHANGE
G1 Z3.400 F9000.000
G1 X135.226 Y112.346
G1 F1430
G1 X135.226 Y112.226 E0.00406
G1 X164.774 Y112.226 E1.00014
G1 X164.774 Y141.774 E1.00014
G1 X135.226 Y141.774 E1.00014
G1 X135.226 Y112.406 E0.99404
;BEFORE_LAYER_CHANGE
G1 Z3.600 F9000.000
G1 F1428
G1 X135.226 Y112.226 E0.00609
G1 X164.774 Y112.226 E1.00014
G1 X164.774 Y141.774 E1.00014
G1 X135.226 Y141.774 E1.00014
G1 X135.226 Y112.466 E0.99201
;BEFORE_LAYER_CHANGE
G1 Z3.800 F9000.000
G1 X135.226 Y112.226
G1 F1429
G1 X164.774 Y112.226 E1.00014
G1 X164.774 Y141.774 E1.00014
G1 X135.226 Y141.774 E1.00014
G1 X135.226 Y112.286 E0.99811
;BEFORE_LAYER_CHANGE
G1 Z4.000 F9000.000
G1 X135.226 Y112.286
G1 F1430
G1 X135.226 Y112.226 E0.00203
G1 X164.774 Y112.226 E1.00014
G1 X164.774 Y141.774 E1.00014
G1 X135.226 Y141.774 E1.00014
G1 X135.226 Y112.346 E0.99608
;BEFORE_LAYER_CHANGE
G1 Z4.200 F9000.000
G1 X135.226 Y112.346
G1 F1430
G1 X135.226 Y112.226 E0.00406
G1 X164.774 Y112.226 E1.00014
G1 X164.774 Y141.774 E1.00014
G1 X135.226 Y141.774 E1.00014
G1 X135.226 Y112.406 E0.99404
;BEFORE_LAYER_CHANGE
G1 Z4.400 F9000.000
G1 F1428
G1 X135.226 Y112.226 E0.00609
G1 X164.774 Y112.226 E1.00014
G1 X164.774 Y141.774 E1.00014
G1 X135.226 Y141.774 E1.00014
G1 X135.226 Y112.466 E0.99201
;BEFORE_LAYER_CHANGE
G1 Z4.600 F9000.000
G1 X135.226 Y112.226
G1 F1429
G1 X164.774 Y112.226 E1.00014
G1 X164.774 Y141.774 E1.00014
G1 X135.226 Y141.774 E1.00014
G1 X135.226 Y112.286 E0.99811
;BEFORE_LAYER_CHANGE
G1 Z4.800 F9000.000
G1 X135.226 Y112.286
G1 F1430
G1 X135.226 Y112.226 E0.00203
G1 X164.774 Y112.226 E1.00014
G1 X164.774 Y141.774 E1.00014
G1 X135.226 Y141.774 E1.00014
G1 X135.226 Y112.346 E0.99608
;BEFORE_LAYER_CHANGE
G1 Z5.000 F9000.000
G1 X135.226 Y112.346
G1 F1430
G1 X135.226 Y112.226 E0.00406
G1 X164.774 Y112.226 E1.00014
G1 X164.774 Y141.774 E1.00014
G1 X135.226 Y141.774 E1.00014
G1 X135.226 Y112.406 E0.99404
;BEFORE_LAYER_CHANGE
G1 Z5.200 F9000.000
G1 F1428
G1 X135.226 Y112.226 E0.00609
G1 X164.774 Y112.226 E1.00014
G1 X164.774 Y141.774 E1.00014
G1 X135.226 Y141.774 E1.00014
G1 X135.226 Y112.466 E0.99201
;BEFORE_LAYER_CHANGE
G1 Z5.400 F9000.000
G1 X135.226 Y112.226
G1 F1429
G1 X164.774 Y112.226 E1.00014
G1 X164.774 Y141.774 E1.00014
G1 X135.226 Y141.774 E1.00014
G1 X135.226 Y112.286 E0.99811
;BEFORE_LAYER_CHANGE
G1 Z5.600 F9000.000
G1 X135.226 Y112.286
G1 F1430
G1 X135.226 Y112.226 E0.00203
G1 X164.774 Y112.226 E1.00014
G1 X164.774 Y141.774 E1.00014
G1 X135.226 Y141.774 E1.00014
G1 X135.226 Y112.346 E0.99608

;BEFORE_LAYER_CHANGE
G1 Z5.800 F9000.000
G1 X135.226 Y112.346
G1 F1430
G1 X135.226 Y112.226 E0.00406
G1 X164.774 Y112.226 E1.00014
G1 X164.774 Y141.774 E1.00014
G1 X135.226 Y141.774 E1.00014
G1 X135.226 Y112.406 E0.99404
;BEFORE_LAYER_CHANGE
G1 Z6.000 F9000.000
G1 F1428
G1 X135.226 Y112.226 E0.00609
G1 X164.774 Y112.226 E1.00014
G1 X164.774 Y141.774 E1.00014
G1 X135.226 Y141.774 E1.00014
G1 X135.226 Y112.466 E0.99201
;BEFORE_LAYER_CHANGE
G1 Z6.200 F9000.000
G1 X135.226 Y112.226
G1 F1429
G1 X164.774 Y112.226 E1.00014
G1 X164.774 Y141.774 E1.00014
G1 X135.226 Y141.774 E1.00014
G1 X135.226 Y112.286 E0.99811
;BEFORE_LAYER_CHANGE
G1 Z6.400 F9000.000
G1 X135.226 Y112.286
G1 F1430
G1 X135.226 Y112.226 E0.00203
G1 X164.774 Y112.226 E1.00014
G1 X164.774 Y141.774 E1.00014
G1 X135.226 Y141.774 E1.00014
G1 X135.226 Y112.346 E0.99608
;BEFORE_LAYER_CHANGE
G1 Z6.600 F9000.000
G1 X135.226 Y112.346
G1 F1430
G1 X135.226 Y112.226 E0.00406
G1 X164.774 Y112.226 E1.00014
G1 X164.774 Y141.774 E1.00014
G1 X135.226 Y141.774 E1.00014
G1 X135.226 Y112.406 E0.99404
;BEFORE_LAYER_CHANGE
G1 Z6.800 F9000.000
G1 F1428
G1 X135.226 Y112.226 E0.00609
G1 X164.774 Y112.226 E1.00014
G1 X164.774 Y141.774 E1.00014
G1 X135.226 Y141.774 E1.00014
G1 X135.226 Y112.466 E0.99201
;BEFORE_LAYER_CHANGE
G1 Z7.000 F9000.000
G1 X135.226 Y112.226
G1 F1429
G1 X164.774 Y112.226 E1.00014
G1 X164.774 Y141.774 E1.00014
G1 X135.226 Y141.774 E1.00014
G1 X135.226 Y112.286 E0.99811
;BEFORE_LAYER_CHANGE
G1 Z7.200 F9000.000
G1 X135.226 Y112.286
G1 F1430
G1 X135.226 Y112.226 E0.00203
G1 X164.774 Y112.226 E1.00014
G1 X164.774 Y141.774 E1.00014
G1 X135.226 Y141.774 E1.00014
G1 X135.226 Y112.346 E0.99608
;BEFORE_LAYER_CHANGE
G1 Z7.400 F9000.000
G1 X135.226 Y112.346
G1 F1430
G1 X135.226 Y112.226 E0.00406
G1 X164.774 Y112.226 E1.00014
G1 X164.774 Y141.774 E1.00014
G1 X135.226 Y141.774 E1.00014
G1 X135.226 Y112.406 E0.99404
;BEFORE_LAYER_CHANGE
G1 Z7.600 F9000.000
G1 F1428
G1 X135.226 Y112.226 E0.00609
G1 X164.774 Y112.226 E1.00014
G1 X164.774 Y141.774 E1.00014
G1 X135.226 Y141.774 E1.00014
G1 X135.226 Y112.466 E0.99201
;BEFORE_LAYER_CHANGE
G1 Z7.800 F9000.000
G1 X135.226 Y112.226
G1 F1429
G1 X164.774 Y112.226 E1.00014
G1 X164.774 Y141.774 E1.00014
G1 X135.226 Y141.774 E1.00014
G1 X135.226 Y112.286 E0.99811
;BEFORE_LAYER_CHANGE
G1 Z8.000 F9000.000
G1 X135.226 Y112.286
G1 F1430
G1 X135.226 Y112.226 E0.00203
G1 X164.774 Y112.226 E1.00014
G1 X164.774 Y141.774 E1.00014
G1 X135.226 Y141.774 E1.00014
G1 X135.226 Y112.346 E0.99608

;BEFORE_LAYER_CHANGE
G1 Z8.200 F9000.000
G1 X135.226 Y112.346
G1 F1430
G1 X135.226 Y112.226 E0.00406
G1 X164.774 Y112.226 E1.00014
G1 X164.774 Y141.774 E1.00014
G1 X135.226 Y141.774 E1.00014
G1 X135.226 Y112.406 E0.99404
;BEFORE_LAYER_CHANGE
G1 Z8.400 F9000.000
G1 F1428
G1 X135.226 Y112.226 E0.00609
G1 X164.774 Y112.226 E1.00014
G1 X164.774 Y141.774 E1.00014
G1 X135.226 Y141.774 E1.00014
G1 X135.226 Y112.466 E0.99201
;BEFORE_LAYER_CHANGE
G1 Z8.600 F9000.000
G1 X135.226 Y112.226
G1 F1429
G1 X164.774 Y112.226 E1.00014
G1 X164.774 Y141.774 E1.00014
G1 X135.226 Y141.774 E1.00014
G1 X135.226 Y112.286 E0.99811
;BEFORE_LAYER_CHANGE
G1 Z8.800 F9000.000
G1 X135.226 Y112.286
G1 F1430
G1 X135.226 Y112.226 E0.00203
G1 X164.774 Y112.226 E1.00014
G1 X164.774 Y141.774 E1.00014
G1 X135.226 Y141.774 E1.00014
G1 X135.226 Y112.346 E0.99608
;BEFORE_LAYER_CHANGE
G1 Z9.000 F9000.000
G1 X135.226 Y112.346
G1 F1430
G1 X135.226 Y112.226 E0.00406
G1 X164.774 Y112.226 E1.00014
G1 X164.774 Y141.774 E1.00014
G1 X135.226 Y141.774 E1.00014
G1 X135.226 Y112.406 E0.99404
;BEFORE_LAYER_CHANGE
G1 Z9.200 F9000.000
G1 F1428
G1 X135.226 Y112.226 E0.00609
G1 X164.774 Y112.226 E1.00014
G1 X164.774 Y141.774 E1.00014
G1 X135.226 Y141.774 E1.00014
G1 X135.226 Y112.466 E0.99201
;BEFORE_LAYER_CHANGE
G1 Z9.400 F9000.000
G1 X135.226 Y112.226
G1 F1429
G1 X164.774 Y112.226 E1.00014
G1 X164.774 Y141.774 E1.00014
G1 X135.226 Y141.774 E1.00014
G1 X135.226 Y112.286 E0.99811
;BEFORE_LAYER_CHANGE
G1 Z9.600 F9000.000
G1 X135.226 Y112.286
G1 F1430
G1 X135.226 Y112.226 E0.00203
G1 X164.774 Y112.226 E1.00014
G1 X164.774 Y141.774 E1.00014
G1 X135.226 Y141.774 E1.00014
G1 X135.226 Y112.346 E0.99608
;BEFORE_LAYER_CHANGE
G1 Z9.800 F9000.000
G1 X135.226 Y112.346
G1 F1430
G1 X135.226 Y112.226 E0.00406
G1 X164.774 Y112.226 E1.00014
G1 X164.774 Y141.774 E1.00014
G1 X135.226 Y141.774 E1.00014
G1 X135.226 Y112.406 E0.99404
;BEFORE_LAYER_CHANGE
G1 Z10.000 F9000.000
G1 F1428
G1 X135.226 Y112.226 E0.00609
G1 X164.774 Y112.226 E1.00014
G1 X164.774 Y141.774 E1.00014
G1 X135.226 Y141.774 E1.00014
G1 X135.226 Y112.466 E0.99201
;BEFORE_LAYER_CHANGE
G1 Z10.200 F9000.000
G1 X135.226 Y112.226
G1 F1429
G1 X164.774 Y112.226 E1.00014
G1 X164.774 Y141.774 E1.00014
G1 X135.226 Y141.774 E1.00014
G1 X135.226 Y112.286 E0.99811
;BEFORE_LAYER_CHANGE
G1 Z10.400 F9000.000
G1 X135.226 Y112.286
G1 F1430
G1 X135.226 Y112.226 E0.00203
G1 X164.774 Y112.226 E1.00014
G1 X164.774 Y141.774 E1.00014
G1 X135.226 Y141.774 E1.00014
G1 X135.226 Y112.346 E0.99608

;BEFORE_LAYER_CHANGE
G1 Z10.600 F9000.000
G1 X135.226 Y112.346
G1 F1430
G1 X135.226 Y112.226 E0.00406
G1 X164.774 Y112.226 E1.00014
G1 X164.774 Y141.774 E1.00014
G1 X135.226 Y141.774 E1.00014
G1 X135.226 Y112.406 E0.99404
;BEFORE_LAYER_CHANGE
G1 Z10.800 F9000.000
G1 F1428
G1 X135.226 Y112.226 E0.00609
G1 X164.774 Y112.226 E1.00014
G1 X164.774 Y141.774 E1.00014
G1 X135.226 Y141.774 E1.00014
G1 X135.226 Y112.466 E0.99201
;BEFORE_LAYER_CHANGE
G1 Z11.000 F9000.000
G1 X135.226 Y112.226
G1 F1429
G1 X164.774 Y112.226 E1.00014
G1 X164.774 Y141.774 E1.00014
G1 X135.226 Y141.774 E1.00014
G1 X135.226 Y112.286 E0.99811
;BEFORE_LAYER_CHANGE
G1 Z11.200 F9000.000
G1 X135.226 Y112.286
G1 F1430
G1 X135.226 Y112.226 E0.00203
G1 X164.774 Y112.226 E1.00014
G1 X164.774 Y141.774 E1.00014
G1 X135.226 Y141.774 E1.00014
G1 X135.226 Y112.346 E0.99608
;BEFORE_LAYER_CHANGE
G1 Z11.400 F9000.000
G1 X135.226 Y112.346
G1 F1430
G1 X135.226 Y112.226 E0.00406
G1 X164.774 Y112.226 E1.00014
G1 X164.774 Y141.774 E1.00014
G1 X135.226 Y141.774 E1.00014
G1 X135.226 Y112.406 E0.99404
;BEFORE_LAYER_CHANGE
G1 Z11.600 F9000.000
G1 F1428
G1 X135.226 Y112.226 E0.00609
G1 X164.774 Y112.226 E1.00014
G1 X164.774 Y141.774 E1.00014
G1 X135.226 Y141.774 E1.00014
G1 X135.226 Y112.466 E0.99201
;BEFORE_LAYER_CHANGE
G1 Z11.800 F9000.000
G1 X135.226 Y112.226
G1 F1429
G1 X164.774 Y112.226 E1.00014
G1 X164.774 Y141.774 E1.00014
G1 X135.226 Y141.774 E1.00014
G1 X135.226 Y112.286 E0.99811
;BEFORE_LAYER_CHANGE
G1 Z12.000 F9000.000
G1 X135.226 Y112.286
G1 F1430
G1 X135.226 Y112.226 E0.00203
G1 X164.774 Y112.226 E1.00014
G1 X164.774 Y141.774 E1.00014
G1 X135.226 Y141.774 E1.00014
G1 X135.226 Y112.346 E0.99608
;BEFORE_LAYER_CHANGE
G1 Z12.200 F9000.000
G1 X135.226 Y112.346
G1 F1430
