; generated by SuperSlicer 2.2.53 on 2020-10-28 at 19:58:10 UTC

; 

; external perimeters extrusion width = 0.45mm
; perimeters extrusion width = 0.45mm
; infill extrusion width = 0.45mm
; solid infill extrusion width = 0.45mm
; top infill extrusion width = 0.40mm
; first layer extrusion width = 0.45mm

M107
G10 P0 R200 S210 ; sets the standby temperature
M140 S65 ; set bed temp
M190 S65 ; wait for bed temp

M104 S215 ; set extruder temp
G28 ; Home all axes

G92 E0 ; Reset Extruder
G1 X5 Y20 Z2.0 F3000.0 ; Move to start position
M109 S215 ; wait for extruder temp

G1 X10.1 Y20 Z0.28 F5000.0 ;Move to start position
G1 X10.1 Y200.0 Z0.28 F1500.0 E15 ;Draw the first line
G1 X10.4 Y200.0 Z0.28 F5000.0 ;Move to side a little
G1 X10.4 Y20 Z0.28 F1500.0 E30 ;Draw the second line
G92 E0 ; Reset Extruder
G21 ; set units to millimeters
G90 ; use absolute coordinates
M83 ; use relative distances for extrusion
; Filament gcode
;M900 K0.16
;M221 S183
;BEFORE_LAYER_CHANGE
G1 Z0.200000 F9000.000
G1 E-2.00000 F2400.00000
G1 Z1.600000 F9000.000
G1 X130.810 Y108.488
G1 Z0.200000
G1 E2.10000 F1200.00000
G1 F720.000
G1 X131.628 Y107.695 E0.03856
G1 X132.584 Y107.087 E0.03836
G1 X133.649 Y106.682 E0.03856
G1 X134.774 Y106.500 E0.03856
G1 X164.904 Y106.491 E1.01989
G1 X165.923 Y106.585 E0.03462
G1 X166.907 Y106.863 E0.03462
G1 X167.825 Y107.314 E0.03462
G1 X168.645 Y107.925 E0.03462
G1 X169.341 Y108.674 E0.03462
G1 X169.889 Y109.537 E0.03462
G1 X170.272 Y110.486 E0.03462
G1 X170.476 Y111.488 E0.03462
G1 X170.505 Y142.109 E1.03649
G1 X170.394 Y143.032 E0.03146
G1 X170.133 Y143.918 E0.03126
G1 X169.728 Y144.754 E0.03146
G1 X169.190 Y145.512 E0.03146
G1 X168.326 Y146.341 E0.04053
G1 X167.310 Y146.964 E0.04033
G1 X166.186 Y147.359 E0.04033
G1 X164.998 Y147.508 E0.04053
G1 X134.879 Y147.505 E1.01950
G1 X133.962 Y147.392 E0.03126
G1 X133.077 Y147.131 E0.03126
G1 X132.241 Y146.725 E0.03146
G1 X131.488 Y146.190 E0.03126
G1 X130.659 Y145.326 E0.04053
G1 X130.036 Y144.310 E0.04033
G1 X129.641 Y143.186 E0.04033
G1 X129.492 Y141.998 E0.04053
G1 X129.495 Y111.879 E1.01950
G1 X129.608 Y110.962 E0.03126
G1 X129.869 Y110.077 E0.03126
G1 X130.275 Y109.241 E0.03146
G1 X130.775 Y108.536 E0.02923
G1 X131.106 Y108.774 F9000.000
G1 F720.000
G1 X131.898 Y108.001 E0.03745
G1 X132.788 Y107.440 E0.03561
G1 X133.778 Y107.069 E0.03580
G1 X134.818 Y106.906 E0.03561
G1 X164.904 Y106.898 E1.01839
G1 X165.851 Y106.986 E0.03219
G1 X166.766 Y107.245 E0.03219
G1 X167.619 Y107.666 E0.03219
G1 X168.385 Y108.239 E0.03238
G1 X169.030 Y108.938 E0.03219
G1 X169.539 Y109.748 E0.03238
G1 X169.890 Y110.632 E0.03219
G1 X170.074 Y111.565 E0.03219
G1 X170.099 Y142.085 E1.03305
G1 X169.995 Y142.951 E0.02953
G1 X169.749 Y143.782 E0.02934
G1 X169.366 Y144.566 E0.02953
G1 X168.861 Y145.271 E0.02934
G1 X168.062 Y146.030 E0.03732
G1 X167.116 Y146.606 E0.03751
G1 X166.074 Y146.968 E0.03732
G1 X164.980 Y147.102 E0.03732
G1 X134.910 Y147.099 E1.01783
G1 X134.049 Y146.995 E0.02934
G1 X133.213 Y146.747 E0.02953
G1 X132.434 Y146.366 E0.02934
G1 X131.729 Y145.861 E0.02934
G1 X130.970 Y145.062 E0.03732
G1 X130.394 Y144.116 E0.03751
G1 X130.032 Y143.074 E0.03732
G1 X129.898 Y141.980 E0.03732
G1 X129.901 Y111.910 E1.01783
G1 X130.005 Y111.049 E0.02934
G1 X130.253 Y110.213 E0.02953
G1 X130.634 Y109.434 E0.02934
G1 X131.071 Y108.823 E0.02544
G1 E-2.00000 F2400.00000
G1 Z1.600000 F9000.000
G1 X135.326 Y112.326
G1 Z0.200000
G1 E2.10000 F1200.00000
G1 F720.000
G1 X135.326 Y141.674 E0.99337
G1 X164.674 Y141.674 E0.99337
G1 X164.674 Y112.326 E0.99337
G1 X135.386 Y112.326 E0.99134
G1 E-2.00000 F2400.00000
G1 Z1.200000 F9000.000
G1 X164.511 Y113.312
G1 Z0.200000
G1 E2.10000 F1200.00000
G1 F1800.000
G1 X163.871 Y112.672 E0.03038
G1 X163.295 Y112.672 E0.01933
G1 X164.328 Y113.705 E0.04901
G1 X164.328 Y114.280 E0.01933
G1 X162.720 Y112.672 E0.07635
G1 X162.144 Y112.672 E0.01933
G1 X164.328 Y114.856 E0.10368
G1 X164.328 Y115.432 E0.01933
G1 X161.568 Y112.672 E0.13102
G1 X160.993 Y112.672 E0.01933
G1 X164.328 Y116.007 E0.15836
G1 X164.328 Y116.583 E0.01933
G1 X160.417 Y112.672 E0.18569
G1 X159.841 Y112.672 E0.01933
G1 X164.328 Y117.159 E0.21303
G1 X164.328 Y117.735 E0.01933
G1 X159.265 Y112.672 E0.24036
G1 X158.690 Y112.672 E0.01933
G1 X164.328 Y118.310 E0.26770
G1 X164.328 Y118.886 E0.01933
G1 X158.114 Y112.672 E0.29503
G1 X157.538 Y112.672 E0.01933
G1 X164.328 Y119.462 E0.32237
G1 X164.328 Y120.037 E0.01933
G1 X156.963 Y112.672 E0.34971
G1 X156.387 Y112.672 E0.01933
G1 X164.328 Y120.613 E0.37704
G1 X164.328 Y121.189 E0.01933
G1 X155.811 Y112.672 E0.40438
G1 X155.236 Y112.672 E0.01933
G1 X164.328 Y121.764 E0.43171
G1 X164.328 Y122.340 E0.01933
G1 X154.660 Y112.672 E0.45905
G1 X154.084 Y112.672 E0.01933
G1 X164.328 Y122.916 E0.48638
G1 X164.328 Y123.491 E0.01933
G1 X153.509 Y112.672 E0.51372
G1 X152.933 Y112.672 E0.01933
G1 X164.328 Y124.067 E0.54106
G1 X164.328 Y124.643 E0.01933
G1 X152.357 Y112.672 E0.56839
G1 X151.781 Y112.672 E0.01933
G1 X164.328 Y125.219 E0.59573
G1 X164.328 Y125.794 E0.01933
G1 X151.206 Y112.672 E0.62306
G1 X150.630 Y112.672 E0.01933
G1 X164.328 Y126.370 E0.65040
G1 X164.328 Y126.946 E0.01933
G1 X150.054 Y112.672 E0.67773
G1 X149.479 Y112.672 E0.01933
G1 X164.328 Y127.521 E0.70507
G1 X164.328 Y128.097 E0.01933
G1 X148.903 Y112.672 E0.73240
G1 X148.327 Y112.672 E0.01933
G1 X164.328 Y128.673 E0.75974
G1 X164.328 Y129.248 E0.01933
G1 X147.752 Y112.672 E0.78708
G1 X147.176 Y112.672 E0.01933
G1 X164.328 Y129.824 E0.81441
G1 X164.328 Y130.400 E0.01933
G1 X146.600 Y112.672 E0.84175
G1 X146.024 Y112.672 E0.01933
G1 X164.328 Y130.976 E0.86908
G1 X164.328 Y131.551 E0.01933
G1 X145.449 Y112.672 E0.89642
G1 X144.873 Y112.672 E0.01933
G1 X164.328 Y132.127 E0.92375
G1 X164.328 Y132.703 E0.01933
G1 X144.297 Y112.672 E0.95109
G1 X143.722 Y112.672 E0.01933
G1 X164.328 Y133.278 E0.97843
G1 X164.328 Y133.854 E0.01933
G1 X143.146 Y112.672 E1.00576
G1 X142.570 Y112.672 E0.01933
G1 X164.328 Y134.430 E1.03310
G1 X164.328 Y135.005 E0.01933
G1 X141.995 Y112.672 E1.06043
G1 X141.419 Y112.672 E0.01933
G1 X164.328 Y135.581 E1.08777
G1 X164.328 Y136.157 E0.01933
G1 X140.843 Y112.672 E1.11510
G1 X140.268 Y112.672 E0.01933
G1 X164.328 Y136.732 E1.14244
G1 X164.328 Y137.308 E0.01933
G1 X139.692 Y112.672 E1.16978
G1 X139.116 Y112.672 E0.01933
G1 X164.328 Y137.884 E1.19711
G1 X164.328 Y138.460 E0.01933
G1 X138.540 Y112.672 E1.22445
G1 X137.965 Y112.672 E0.01933
G1 X164.328 Y139.035 E1.25178
G1 X164.328 Y139.611 E0.01933
G1 X137.389 Y112.672 E1.27912
G1 X136.813 Y112.672 E0.01933
G1 X164.328 Y140.187 E1.30645
G1 X164.328 Y140.762 E0.01933
G1 X136.238 Y112.672 E1.33379
G1 X135.672 Y112.672 E0.01898
G1 X164.317 Y141.328 E1.36038
G1 X163.741 Y141.328 E0.01933
G1 X135.672 Y113.259 E1.33279
G1 X135.672 Y113.834 E0.01933
G1 X163.166 Y141.328 E1.30546
G1 X162.590 Y141.328 E0.01933
G1 X135.672 Y114.410 E1.27812
G1 X135.672 Y114.986 E0.01933
G1 X162.014 Y141.328 E1.25079
G1 X161.439 Y141.328 E0.01933
G1 X135.672 Y115.561 E1.22345
G1 X135.672 Y116.137 E0.01933
G1 X160.863 Y141.328 E1.19612
G1 X160.287 Y141.328 E0.01933
G1 X135.672 Y116.713 E1.16878
G1 X135.672 Y117.288 E0.01933
G1 X159.712 Y141.328 E1.14145
G1 X159.136 Y141.328 E0.01933
G1 X135.672 Y117.864 E1.11411
G1 X135.672 Y118.440 E0.01933
G1 X158.560 Y141.328 E1.08677
G1 X157.984 Y141.328 E0.01933
G1 X135.672 Y119.016 E1.05944
G1 X135.672 Y119.591 E0.01933
G1 X157.409 Y141.328 E1.03210
G1 X156.833 Y141.328 E0.01933
G1 X135.672 Y120.167 E1.00477
G1 X135.672 Y120.743 E0.01933
G1 X156.257 Y141.328 E0.97743
G1 X155.682 Y141.328 E0.01933
G1 X135.672 Y121.318 E0.95010
G1 X135.672 Y121.894 E0.01933
G1 X155.106 Y141.328 E0.92276
G1 X154.530 Y141.328 E0.01933
G1 X135.672 Y122.470 E0.89542
G1 X135.672 Y123.045 E0.01933
G1 X153.955 Y141.328 E0.86809
G1 X153.379 Y141.328 E0.01933
G1 X135.672 Y123.621 E0.84075
G1 X135.672 Y124.197 E0.01933
G1 X152.803 Y141.328 E0.81342
G1 X152.227 Y141.328 E0.01933
G1 X135.672 Y124.772 E0.78608
G1 X135.672 Y125.348 E0.01933
G1 X151.652 Y141.328 E0.75875
G1 X151.076 Y141.328 E0.01933
G1 X135.672 Y125.924 E0.73141
G1 X135.672 Y126.500 E0.01933
G1 X150.500 Y141.328 E0.70407
G1 X149.925 Y141.328 E0.01933
G1 X135.672 Y127.075 E0.67674
G1 X135.672 Y127.651 E0.01933
G1 X149.349 Y141.328 E0.64940
G1 X148.773 Y141.328 E0.01933
G1 X135.672 Y128.227 E0.62207
G1 X135.672 Y128.802 E0.01933
G1 X148.198 Y141.328 E0.59473
G1 X147.622 Y141.328 E0.01933
G1 X135.672 Y129.378 E0.56740
G1 X135.672 Y129.954 E0.01933
G1 X147.046 Y141.328 E0.54006
G1 X146.471 Y141.328 E0.01933
G1 X135.672 Y130.529 E0.51273
G1 X135.672 Y131.105 E0.01933
G1 X145.895 Y141.328 E0.48539
G1 X145.319 Y141.328 E0.01933
G1 X135.672 Y131.681 E0.45805
G1 X135.672 Y132.257 E0.01933
G1 X144.743 Y141.328 E0.43072
G1 X144.168 Y141.328 E0.01933
G1 X135.672 Y132.832 E0.40338
G1 X135.672 Y133.408 E0.01933
G1 X143.592 Y141.328 E0.37605
G1 X143.016 Y141.328 E0.01933
G1 X135.672 Y133.984 E0.34871
G1 X135.672 Y134.559 E0.01933
G1 X142.441 Y141.328 E0.32138
G1 X141.865 Y141.328 E0.01933
G1 X135.672 Y135.135 E0.29404
G1 X135.672 Y135.711 E0.01933
G1 X141.289 Y141.328 E0.26670
G1 X140.714 Y141.328 E0.01933
G1 X135.672 Y136.286 E0.23937
G1 X135.672 Y136.862 E0.01933
G1 X140.138 Y141.328 E0.21203
G1 X139.562 Y141.328 E0.01933
G1 X135.672 Y137.438 E0.18470
G1 X135.672 Y138.014 E0.01933
G1 X138.986 Y141.328 E0.15736
G1 X138.411 Y141.328 E0.01933
G1 X135.672 Y138.589 E0.13003
G1 X135.672 Y139.165 E0.01933
G1 X137.835 Y141.328 E0.10269
G1 X137.259 Y141.328 E0.01933
G1 X135.672 Y139.741 E0.07535
G1 X135.672 Y140.316 E0.01933
G1 X136.684 Y141.328 E0.04802
G1 X136.108 Y141.328 E0.01933
G1 X135.489 Y140.709 E0.02938
;BEFORE_LAYER_CHANGE
G1 Z0.400000 F9000.000
G10 P0 S210 ; set temperature
M140 S60 ; set bed temperature
G1 E-2.00000 F2400.00000
G1 Z1.400000 F9000.000
G1 X164.774 Y141.774
G1 Z0.400000
G1 E2.10000 F1200.00000
G1 F2400.000
G1 X164.774 Y112.226 E1.00014
G1 X135.226 Y112.226 E1.00014
G1 X135.226 Y141.774 E1.00014
G1 X164.714 Y141.774 E0.99811
G1 X163.788 Y141.611 F9000.000
G1 F2400.000
G1 X164.428 Y140.971 E0.03082
G1 X164.428 Y140.395 E0.01961
G1 X163.395 Y141.428 E0.04974
G1 X162.820 Y141.428 E0.01961
G1 X164.428 Y139.820 E0.07748
G1 X164.428 Y139.244 E0.01961
G1 X162.244 Y141.428 E0.10522
G1 X161.668 Y141.428 E0.01961
G1 X164.428 Y138.668 E0.13295
G1 X164.428 Y138.093 E0.01961
G1 X161.093 Y141.428 E0.16069
G1 X160.517 Y141.428 E0.01961
G1 X164.428 Y137.517 E0.18843
G1 X164.428 Y136.941 E0.01961
G1 X159.941 Y141.428 E0.21617
G1 X159.365 Y141.428 E0.01961
G1 X164.428 Y136.365 E0.24391
G1 X164.428 Y135.790 E0.01961
G1 X158.790 Y141.428 E0.27165
G1 X158.214 Y141.428 E0.01961
G1 X164.428 Y135.214 E0.29939
G1 X164.428 Y134.638 E0.01961
G1 X157.638 Y141.428 E0.32713
G1 X157.063 Y141.428 E0.01961
G1 X164.428 Y134.063 E0.35487
G1 X164.428 Y133.487 E0.01961
G1 X156.487 Y141.428 E0.38261
G1 X155.911 Y141.428 E0.01961
G1 X164.428 Y132.911 E0.41035
G1 X164.428 Y132.336 E0.01961
G1 X155.336 Y141.428 E0.43809
G1 X154.760 Y141.428 E0.01961
G1 X164.428 Y131.760 E0.46583
G1 X164.428 Y131.184 E0.01961
G1 X154.184 Y141.428 E0.49357
G1 X153.609 Y141.428 E0.01961
G1 X164.428 Y130.609 E0.52130
G1 X164.428 Y130.033 E0.01961
G1 X153.033 Y141.428 E0.54904
G1 X152.457 Y141.428 E0.01961
G1 X164.428 Y129.457 E0.57678
G1 X164.428 Y128.881 E0.01961
G1 X151.881 Y141.428 E0.60452
G1 X151.306 Y141.428 E0.01961
G1 X164.428 Y128.306 E0.63226
G1 X164.428 Y127.730 E0.01961
G1 X150.730 Y141.428 E0.66000
G1 X150.154 Y141.428 E0.01961
G1 X164.428 Y127.154 E0.68774
G1 X164.428 Y126.579 E0.01961
G1 X149.579 Y141.428 E0.71548
G1 X149.003 Y141.428 E0.01961
G1 X164.428 Y126.003 E0.74322
G1 X164.428 Y125.427 E0.01961
G1 X148.427 Y141.428 E0.77096
G1 X147.852 Y141.428 E0.01961
G1 X164.428 Y124.852 E0.79870
G1 X164.428 Y124.276 E0.01961
G1 X147.276 Y141.428 E0.82644
G1 X146.700 Y141.428 E0.01961
G1 X164.428 Y123.700 E0.85418
G1 X164.428 Y123.124 E0.01961
G1 X146.124 Y141.428 E0.88192
G1 X145.549 Y141.428 E0.01961
G1 X164.428 Y122.549 E0.90965
G1 X164.428 Y121.973 E0.01961
G1 X144.973 Y141.428 E0.93739
G1 X144.397 Y141.428 E0.01961
G1 X164.428 Y121.397 E0.96513
G1 X164.428 Y120.822 E0.01961
G1 X143.822 Y141.428 E0.99287
G1 X143.246 Y141.428 E0.01961
G1 X164.428 Y120.246 E1.02061
G1 X164.428 Y119.670 E0.01961
G1 X142.670 Y141.428 E1.04835
G1 X142.095 Y141.428 E0.01961
G1 X164.428 Y119.095 E1.07609
G1 X164.428 Y118.519 E0.01961
G1 X141.519 Y141.428 E1.10383
G1 X140.943 Y141.428 E0.01961
G1 X164.428 Y117.943 E1.13157
G1 X164.428 Y117.368 E0.01961
G1 X140.367 Y141.428 E1.15931
G1 X139.792 Y141.428 E0.01961
G1 X164.428 Y116.792 E1.18705
G1 X164.428 Y116.216 E0.01961
G1 X139.216 Y141.428 E1.21479
G1 X138.640 Y141.428 E0.01961
G1 X164.428 Y115.640 E1.24253
G1 X164.428 Y115.065 E0.01961
G1 X138.065 Y141.428 E1.27027
G1 X137.489 Y141.428 E0.01961
G1 X164.428 Y114.489 E1.29800
G1 X164.428 Y113.913 E0.01961
G1 X136.913 Y141.428 E1.32574
G1 X136.338 Y141.428 E0.01961
G1 X164.428 Y113.338 E1.35348
G1 X164.428 Y112.762 E0.01961
G1 X135.762 Y141.428 E1.38122
G1 X135.572 Y141.428 E0.00646
G1 X135.572 Y141.041 E0.01316
G1 X164.041 Y112.572 E1.37175
G1 X163.466 Y112.572 E0.01961
G1 X135.572 Y140.466 E1.34401
G1 X135.572 Y139.890 E0.01961
G1 X162.890 Y112.572 E1.31627
G1 X162.314 Y112.572 E0.01961
G1 X135.572 Y139.314 E1.28853
G1 X135.572 Y138.739 E0.01961
G1 X161.739 Y112.572 E1.26079
G1 X161.163 Y112.572 E0.01961
G1 X135.572 Y138.163 E1.23305
G1 X135.572 Y137.587 E0.01961
G1 X160.587 Y112.572 E1.20531
G1 X160.012 Y112.572 E0.01961
G1 X135.572 Y137.012 E1.17757
G1 X135.572 Y136.436 E0.01961
G1 X159.436 Y112.572 E1.14983
G1 X158.860 Y112.572 E0.01961
G1 X135.572 Y135.860 E1.12209
G1 X135.572 Y135.284 E0.01961
G1 X158.284 Y112.572 E1.09435
G1 X157.709 Y112.572 E0.01961
G1 X135.572 Y134.709 E1.06662
G1 X135.572 Y134.133 E0.01961
G1 X157.133 Y112.572 E1.03888
G1 X156.557 Y112.572 E0.01961
G1 X135.572 Y133.557 E1.01114
G1 X135.572 Y132.982 E0.01961
G1 X155.982 Y112.572 E0.98340
G1 X155.406 Y112.572 E0.01961
G1 X135.572 Y132.406 E0.95566
G1 X135.572 Y131.830 E0.01961
G1 X154.830 Y112.572 E0.92792
G1 X154.255 Y112.572 E0.01961
G1 X135.572 Y131.255 E0.90018
G1 X135.572 Y130.679 E0.01961
G1 X153.679 Y112.572 E0.87244
G1 X153.103 Y112.572 E0.01961
G1 X135.572 Y130.103 E0.84470
G1 X135.572 Y129.527 E0.01961
G1 X152.528 Y112.572 E0.81696
G1 X151.952 Y112.572 E0.01961
G1 X135.572 Y128.952 E0.78922
G1 X135.572 Y128.376 E0.01961
G1 X151.376 Y112.572 E0.76148
G1 X150.800 Y112.572 E0.01961
G1 X135.572 Y127.800 E0.73374
G1 X135.572 Y127.225 E0.01961
G1 X150.225 Y112.572 E0.70600
G1 X149.649 Y112.572 E0.01961
G1 X135.572 Y126.649 E0.67827
G1 X135.572 Y126.073 E0.01961
G1 X149.073 Y112.572 E0.65053
G1 X148.498 Y112.572 E0.01961
G1 X135.572 Y125.498 E0.62279
G1 X135.572 Y124.922 E0.01961
G1 X147.922 Y112.572 E0.59505
G1 X147.346 Y112.572 E0.01961
G1 X135.572 Y124.346 E0.56731
G1 X135.572 Y123.771 E0.01961
G1 X146.771 Y112.572 E0.53957
G1 X146.195 Y112.572 E0.01961
G1 X135.572 Y123.195 E0.51183
G1 X135.572 Y122.619 E0.01961
G1 X145.619 Y112.572 E0.48409
G1 X145.043 Y112.572 E0.01961
G1 X135.572 Y122.043 E0.45635
G1 X135.572 Y121.468 E0.01961
G1 X144.468 Y112.572 E0.42861
G1 X143.892 Y112.572 E0.01961
G1 X135.572 Y120.892 E0.40087
G1 X135.572 Y120.316 E0.01961
G1 X143.316 Y112.572 E0.37313
G1 X142.741 Y112.572 E0.01961
G1 X135.572 Y119.741 E0.34539
G1 X135.572 Y119.165 E0.01961
G1 X142.165 Y112.572 E0.31765
G1 X141.589 Y112.572 E0.01961
G1 X135.572 Y118.589 E0.28992
G1 X135.572 Y118.014 E0.01961
G1 X141.014 Y112.572 E0.26218
G1 X140.438 Y112.572 E0.01961
G1 X135.572 Y117.438 E0.23444
G1 X135.572 Y116.862 E0.01961
G1 X139.862 Y112.572 E0.20670
G1 X139.286 Y112.572 E0.01961
G1 X135.572 Y116.286 E0.17896
G1 X135.572 Y115.711 E0.01961
G1 X138.711 Y112.572 E0.15122
G1 X138.135 Y112.572 E0.01961
G1 X135.572 Y115.135 E0.12348
G1 X135.572 Y114.559 E0.01961
G1 X137.559 Y112.572 E0.09574
G1 X136.984 Y112.572 E0.01961
G1 X135.572 Y113.984 E0.06800
G1 X135.572 Y113.408 E0.01961
G1 X136.408 Y112.572 E0.04026
G1 X135.832 Y112.572 E0.01961
G1 X135.389 Y113.015 E0.02135
;BEFORE_LAYER_CHANGE
