; generated by PrusaSlicer 2.2.0+win64 on 2020-10-21 at 20:10:58 UTC

; 

; external perimeters extrusion width = 0.45mm
; perimeters extrusion width = 0.45mm
; infill extrusion width = 0.45mm
; solid infill extrusion width = 0.45mm
; top infill extrusion width = 0.40mm
; first layer extrusion width = 0.45mm

M107
M140 S65 ; set bed temp
M190 S65 ; wait for bed temp

M104 S215 ; set extruder temp
G28 ; Home all axes

G92 E0 ; Reset Extruder
G1 X5 Y20 Z2.0 F3000.0 ; Move to start position
M109 S215 ; wait for extruder temp

G1 X10.1 Y20 Z0.28 F5000.0 ;Move to start position
G1 X10.1 Y200.0 Z0.28 F1500.0 E15 ;Draw the first line
G1 X10.4 Y200.0 Z0.28 F5000.0 ;Move to side a little
G1 X10.4 Y20 Z0.28 F1500.0 E30 ;Draw the second line
G92 E0 ; Reset Extruder
G21 ; set units to millimeters
G90 ; use absolute coordinates
M83 ; use relative distances for extrusion
; Filament gcode
;M900 K0.16
;BEFORE_LAYER_CHANGE
G1 Z0.200 F9000.000
G1 E-2.00000 F2400.00000
G1 Z0.800 F9000.000
G1 X136.228 Y112.576
G1 Z0.200
G1 E2.10000 F1200.00000
G1 F720.000
G1 X137.207 Y111.901 E0.04026
G1 X138.303 Y111.439 E0.04026
G1 X139.470 Y111.210 E0.04026
G1 X160.006 Y111.186 E0.69512
G1 X161.025 Y111.277 E0.03464
G1 X162.018 Y111.547 E0.03484
G1 X162.943 Y111.986 E0.03464
G1 X163.781 Y112.583 E0.03484
G1 X164.501 Y113.319 E0.03484
G1 X165.079 Y114.170 E0.03484
G1 X165.498 Y115.110 E0.03484
G1 X165.745 Y116.103 E0.03464
G1 X165.814 Y116.981 E0.02981
G1 X165.808 Y137.274 E0.68688
G1 X165.697 Y138.160 E0.03022
G1 X165.455 Y139.013 E0.03002
G1 X165.085 Y139.819 E0.03002
G1 X164.594 Y140.564 E0.03022
G1 X163.713 Y141.474 E0.04286
G1 X162.656 Y142.172 E0.04286
G1 X161.474 Y142.624 E0.04286
G1 X160.215 Y142.810 E0.04306
G1 X139.702 Y142.807 E0.69433
G1 X138.829 Y142.695 E0.02981
G1 X137.976 Y142.451 E0.03002
G1 X137.171 Y142.079 E0.03002
G1 X136.436 Y141.594 E0.02981
G1 X135.526 Y140.713 E0.04286
G1 X134.828 Y139.656 E0.04286
G1 X134.376 Y138.474 E0.04286
G1 X134.190 Y137.215 E0.04306
G1 X134.193 Y116.702 E0.69433
G1 X134.305 Y115.829 E0.02981
G1 X134.549 Y114.976 E0.03002
G1 X134.921 Y114.171 E0.03002
G1 X135.406 Y113.436 E0.02981
G1 X136.186 Y112.619 E0.03823
G1 X136.480 Y112.904 F9000.000
G1 F720.000
G1 X137.439 Y112.238 E0.03952
G1 X138.457 Y111.818 E0.03727
G1 X139.544 Y111.612 E0.03746
G1 X160.006 Y111.593 E0.69261
G1 X160.960 Y111.679 E0.03243
G1 X161.890 Y111.934 E0.03262
G1 X162.754 Y112.347 E0.03243
G1 X163.536 Y112.910 E0.03262
G1 X164.206 Y113.603 E0.03262
G1 X164.740 Y114.398 E0.03243
G1 X165.125 Y115.276 E0.03243
G1 X165.350 Y116.213 E0.03262
G1 X165.407 Y116.986 E0.02623
G1 X165.401 Y137.247 E0.68581
G1 X165.297 Y138.084 E0.02856
G1 X165.066 Y138.889 E0.02836
G1 X164.713 Y139.650 E0.02836
G1 X164.248 Y140.346 E0.02836
G1 X163.424 Y141.185 E0.03978
G1 X162.439 Y141.826 E0.03978
G1 X161.339 Y142.239 E0.03978
G1 X160.175 Y142.404 E0.03978
G1 X139.736 Y142.401 E0.69184
G1 X138.910 Y142.296 E0.02817
G1 X138.105 Y142.064 E0.02836
G1 X137.345 Y141.711 E0.02836
G1 X136.654 Y141.248 E0.02817
G1 X135.815 Y140.424 E0.03978
G1 X135.174 Y139.439 E0.03978
G1 X134.761 Y138.339 E0.03978
G1 X134.596 Y137.175 E0.03978
G1 X134.599 Y116.736 E0.69184
G1 X134.704 Y115.910 E0.02817
G1 X134.936 Y115.105 E0.02836
G1 X135.289 Y114.345 E0.02836
G1 X135.752 Y113.654 E0.02817
G1 X136.438 Y112.947 E0.03334
G1 E-2.00000 F2400.00000
G1 Z0.800 F9000.000
G1 X140.325 Y117.325
G1 Z0.200
G1 E2.10000 F1200.00000
G1 F720.000
G1 X159.675 Y117.325 E0.65497
G1 X159.675 Y136.675 E0.65497
G1 X140.325 Y136.675 E0.65497
G1 X140.325 Y117.385 E0.65294
G1 X140.711 Y117.429 F9000.000
G1 X140.732 Y117.732
G1 F720.000
G1 X159.268 Y117.732 E0.62742
G1 X159.268 Y136.268 E0.62742
G1 X140.732 Y136.268 E0.62742
G1 X140.732 Y117.792 E0.62539
G1 E-2.00000 F2400.00000
G1 Z0.800 F9000.000
G1 X146.813 Y123.686
G1 Z0.200
G1 E2.10000 F1200.00000
G1 F720.000
G1 X152.702 Y123.686 E0.19934
G1 X152.702 Y125.548 E0.06302
G1 X150.941 Y125.542 E0.05962
G1 X150.449 Y125.513 E0.01667
G1 X149.980 Y125.447 E0.01606
G1 X149.514 Y125.447 E0.01576
G1 X149.834 Y125.843 E0.01723
G1 X150.195 Y126.183 E0.01679
G1 X150.540 Y126.564 E0.01738
G1 X153.127 Y129.750 E0.13894
G1 X153.127 Y131.494 E0.05903
G1 X146.662 Y131.494 E0.21885
G1 X146.662 Y129.638 E0.06284
G1 X149.256 Y129.644 E0.08782
G1 X149.725 Y129.673 E0.01589
G1 X150.170 Y129.738 E0.01524
G1 X150.587 Y129.738 E0.01408
G1 X150.291 Y129.374 E0.01587
G1 X149.942 Y129.049 E0.01613
G1 X149.609 Y128.684 E0.01675
G1 X146.813 Y125.250 E0.14989
G1 X146.813 Y123.746 E0.05089
G1 X146.745 Y123.292 F9000.000
G1 X146.406 Y123.279
G1 F720.000
G1 X153.109 Y123.279 E0.22690
G1 X153.109 Y125.956 E0.09062
G1 X150.929 Y125.949 E0.07382
G1 X150.510 Y125.924 E0.01420
G1 X150.849 Y126.299 E0.01710
G1 X153.534 Y129.606 E0.14420
G1 X153.534 Y131.901 E0.07770
G1 X146.255 Y131.901 E0.24641
G1 X146.255 Y129.230 E0.09044
G1 X149.269 Y129.237 E0.10205
G1 X149.580 Y129.256 E0.01053
G1 X149.300 Y128.950 E0.01404
G1 X146.406 Y125.394 E0.15518
G1 X146.406 Y123.339 E0.06957
G1 E-2.00000 F2400.00000
G1 Z0.800 F9000.000
G1 X147.848 Y117.895
G1 Z0.200
G1 E2.10000 F1200.00000
G1 F720.000
G1 X152.886 Y122.933 E0.24272
G1 X152.306 Y122.933 E0.01974
G1 X147.451 Y118.078 E0.23389
G1 X146.872 Y118.078 E0.01974
G1 X151.727 Y122.933 E0.23389
G1 X151.147 Y122.933 E0.01974
G1 X146.293 Y118.078 E0.23389
G1 X145.713 Y118.078 E0.01974
G1 X150.568 Y122.933 E0.23389
G1 X149.989 Y122.933 E0.01974
G1 X145.134 Y118.078 E0.23389
G1 X144.554 Y118.078 E0.01974
G1 X149.409 Y122.933 E0.23389
G1 X148.830 Y122.933 E0.01974
G1 X143.975 Y118.078 E0.23389
G1 X143.396 Y118.078 E0.01974
G1 X148.250 Y122.933 E0.23389
G1 X147.671 Y122.933 E0.01974
G1 X142.816 Y118.078 E0.23389
G1 X142.237 Y118.078 E0.01974
G1 X147.092 Y122.933 E0.23389
G1 X146.512 Y122.933 E0.01974
G1 X141.657 Y118.078 E0.23389
G1 X141.078 Y118.078 E0.01974
G1 X146.060 Y123.060 E0.24002
G1 X146.060 Y123.639 E0.01974
G1 X141.078 Y118.658 E0.24001
G1 X141.078 Y119.237 E0.01974
G1 X146.060 Y124.219 E0.24001
G1 X146.060 Y124.798 E0.01974
G1 X141.078 Y119.816 E0.24001
G1 X141.078 Y120.396 E0.01974
G1 X146.060 Y125.378 E0.24001
G1 X146.060 Y125.517 E0.00476
G1 X147.984 Y127.881 E0.10384
G1 X141.078 Y120.975 E0.33272
G1 X141.078 Y121.554 E0.01974
G1 X148.412 Y128.889 E0.35335
G1 X147.832 Y128.887 E0.01979
G1 X141.078 Y122.134 E0.32536
G1 X141.078 Y122.713 E0.01974
G1 X147.251 Y128.886 E0.29738
G1 X146.670 Y128.885 E0.01979
G1 X141.078 Y123.293 E0.26940
G1 X141.078 Y123.872 E0.01974
G1 X146.089 Y128.883 E0.24142
G1 X145.909 Y128.883 E0.00615
G1 X145.909 Y129.282 E0.01360
G1 X141.078 Y124.451 E0.23272
G1 X141.078 Y125.031 E0.01974
G1 X145.909 Y129.861 E0.23272
G1 X145.909 Y130.441 E0.01974
G1 X141.078 Y125.610 E0.23272
G1 X141.078 Y126.190 E0.01974
G1 X145.909 Y131.020 E0.23272
G1 X145.909 Y131.600 E0.01974
G1 X141.078 Y126.769 E0.23272
G1 X141.078 Y127.348 E0.01974
G1 X149.652 Y135.922 E0.41304
G1 X150.231 Y135.922 E0.01974
G1 X146.556 Y132.247 E0.17703
G1 X147.136 Y132.247 E0.01974
G1 X150.810 Y135.922 E0.17703
G1 X151.390 Y135.922 E0.01974
G1 X147.715 Y132.247 E0.17703
G1 X148.295 Y132.247 E0.01974
G1 X151.969 Y135.922 E0.17703
G1 X152.549 Y135.922 E0.01974
G1 X148.874 Y132.247 E0.17703
G1 X149.453 Y132.247 E0.01974
G1 X153.128 Y135.922 E0.17703
G1 X153.707 Y135.922 E0.01974
G1 X150.033 Y132.247 E0.17703
G1 X150.612 Y132.247 E0.01974
G1 X154.287 Y135.922 E0.17703
G1 X154.866 Y135.922 E0.01974
G1 X151.192 Y132.247 E0.17703
G1 X151.771 Y132.247 E0.01974
G1 X155.445 Y135.922 E0.17703
G1 X156.025 Y135.922 E0.01974
G1 X152.350 Y132.247 E0.17703
G1 X152.930 Y132.247 E0.01974
G1 X156.604 Y135.922 E0.17703
G1 X157.184 Y135.922 E0.01974
G1 X153.509 Y132.247 E0.17703
G1 X153.880 Y132.247 E0.01264
G1 X153.880 Y132.039 E0.00709
G1 X157.763 Y135.922 E0.18706
G1 X158.342 Y135.922 E0.01974
G1 X153.880 Y131.460 E0.21497
G1 X153.880 Y130.880 E0.01974
G1 X158.922 Y135.922 E0.24289
G1 X158.922 Y135.343 E0.01974
G1 X153.880 Y130.301 E0.24289
G1 X153.880 Y129.722 E0.01974
G1 X158.922 Y134.763 E0.24289
G1 X158.922 Y134.184 E0.01974
G1 X152.409 Y127.671 E0.31379
G1 X151.293 Y126.296 E0.06032
G1 X151.615 Y126.297 E0.01097
G1 X158.922 Y133.604 E0.35204
G1 X158.922 Y133.025 E0.01974
G1 X152.196 Y126.299 E0.32403
G1 X152.777 Y126.301 E0.01981
G1 X158.922 Y132.446 E0.29602
G1 X158.922 Y131.866 E0.01974
G1 X153.359 Y126.303 E0.26801
G1 X153.455 Y126.304 E0.00329
G1 X153.455 Y125.820 E0.01646
G1 X158.922 Y131.287 E0.26336
G1 X158.922 Y130.707 E0.01974
G1 X153.455 Y125.241 E0.26336
G1 X153.455 Y124.662 E0.01974
G1 X158.922 Y130.128 E0.26336
G1 X158.922 Y129.549 E0.01974
G1 X153.455 Y124.082 E0.26336
G1 X153.455 Y123.503 E0.01974
G1 X158.922 Y128.969 E0.26336
G1 X158.922 Y128.390 E0.01974
G1 X148.610 Y118.078 E0.49679
G1 X149.190 Y118.078 E0.01974
G1 X158.922 Y127.810 E0.46887
G1 X158.922 Y127.231 E0.01974
G1 X149.769 Y118.078 E0.44096
G1 X150.348 Y118.078 E0.01974
G1 X158.922 Y126.652 E0.41305
G1 X158.922 Y126.072 E0.01974
G1 X150.928 Y118.078 E0.38513
G1 X151.507 Y118.078 E0.01974
G1 X158.922 Y125.493 E0.35722
G1 X158.922 Y124.913 E0.01974
G1 X152.087 Y118.078 E0.32931
G1 X152.666 Y118.078 E0.01974
G1 X158.922 Y124.334 E0.30139
G1 X158.922 Y123.755 E0.01974
G1 X153.245 Y118.078 E0.27348
G1 X153.825 Y118.078 E0.01974
G1 X158.922 Y123.175 E0.24557
G1 X158.922 Y122.596 E0.01974
G1 X154.404 Y118.078 E0.21765
G1 X154.983 Y118.078 E0.01974
G1 X158.922 Y122.017 E0.18974
G1 X158.922 Y121.437 E0.01974
G1 X155.563 Y118.078 E0.16183
G1 X156.142 Y118.078 E0.01974
G1 X158.922 Y120.858 E0.13391
G1 X158.922 Y120.278 E0.01974
G1 X156.722 Y118.078 E0.10600
G1 X157.301 Y118.078 E0.01974
G1 X158.922 Y119.699 E0.07809
G1 X158.922 Y119.120 E0.01974
G1 X157.880 Y118.078 E0.05018
G1 X158.460 Y118.078 E0.01974
G1 X159.105 Y118.723 E0.03109
G1 E-2.00000 F2400.00000
G1 Z0.800 F9000.000
G1 X149.255 Y136.105
G1 Z0.200
G1 E2.10000 F1200.00000
G1 F720.000
G1 X141.078 Y127.928 E0.39395
G1 X141.078 Y128.507 E0.01974
G1 X148.493 Y135.922 E0.35722
G1 X147.913 Y135.922 E0.01974
G1 X141.078 Y129.087 E0.32930
G1 X141.078 Y129.666 E0.01974
G1 X147.334 Y135.922 E0.30139
G1 X146.755 Y135.922 E0.01974
G1 X141.078 Y130.245 E0.27348
G1 X141.078 Y130.825 E0.01974
G1 X146.175 Y135.922 E0.24556
G1 X145.596 Y135.922 E0.01974
G1 X141.078 Y131.404 E0.21765
G1 X141.078 Y131.984 E0.01974
G1 X145.016 Y135.922 E0.18974
G1 X144.437 Y135.922 E0.01974
G1 X141.078 Y132.563 E0.16182
G1 X141.078 Y133.142 E0.01974
G1 X143.858 Y135.922 E0.13391
G1 X143.278 Y135.922 E0.01974
G1 X141.078 Y133.722 E0.10600
G1 X141.078 Y134.301 E0.01974
G1 X142.699 Y135.922 E0.07808
G1 X142.119 Y135.922 E0.01974
G1 X141.078 Y134.881 E0.05017
G1 X141.078 Y135.460 E0.01974
G1 X141.723 Y136.105 E0.03108
;BEFORE_LAYER_CHANGE
G1 Z0.400 F9000.000
M104 S210 ; set temperature
M140 S60 ; set bed temperature
G1 X140.225 Y136.775
G1 F2400.000
G1 X140.225 Y117.225 E0.66174
G1 X159.775 Y117.225 E0.66174
G1 X159.775 Y136.775 E0.66174
G1 X140.285 Y136.775 E0.65971
G1 X140.329 Y136.389 F9000.000
G1 X140.632 Y136.368
G1 F2400.000
G1 X140.632 Y117.632 E0.63419
G1 X159.368 Y117.632 E0.63419
G1 X159.368 Y136.368 E0.63419
G1 X140.692 Y136.368 E0.63216
G1 X146.762 Y131.394 F9000.000
G1 F600.000
G1 X146.762 Y129.738 E0.05606
G1 X150.587 Y129.738 E0.12946
G1 X146.913 Y125.214 E0.19726
G1 X146.913 Y123.786 E0.04833
G1 X152.602 Y123.786 E0.19257
G1 X152.602 Y125.447 E0.05622
G1 X149.514 Y125.447 E0.10453
G1 X153.027 Y129.786 E0.18897
G1 X153.027 Y131.394 E0.05444
G1 X146.822 Y131.394 E0.21005
G1 X146.363 Y131.428 F9000.000
G1 X146.506 Y123.379
G1 F600.000
G1 X153.009 Y123.379 E0.22013
G1 X153.009 Y125.854 E0.08378
G1 X150.367 Y125.854 E0.08943
G1 X153.434 Y129.642 E0.16496
G1 X153.434 Y131.801 E0.07310
G1 X146.355 Y131.801 E0.23964
G1 X146.355 Y129.331 E0.08361
G1 X149.732 Y129.331 E0.11431
G1 X146.506 Y125.358 E0.17322
G1 X146.506 Y123.439 E0.06497
G1 X146.343 Y123.449 F9000.000
G1 F2400.000
G1 X140.978 Y128.814 E0.25722
G1 X140.978 Y129.391 E0.01955
G1 X146.160 Y124.209 E0.24844
G1 X146.160 Y124.786 E0.01955
G1 X140.978 Y129.968 E0.24844
G1 X140.978 Y130.544 E0.01955
G1 X146.160 Y125.362 E0.24844
G1 X146.160 Y125.481 E0.00403
G1 X146.365 Y125.734 E0.01103
G1 X140.978 Y131.121 E0.25828
G1 X140.978 Y131.697 E0.01955
G1 X146.624 Y126.052 E0.27066
G1 X146.882 Y126.370 E0.01390
G1 X140.978 Y132.274 E0.28305
G1 X140.978 Y132.851 E0.01955
G1 X147.140 Y126.688 E0.29544
G1 X147.399 Y127.007 E0.01390
G1 X140.795 Y133.610 E0.31661
G1 X140.795 Y128.421 F9000.000
G1 F2400.000
G1 X151.238 Y117.978 E0.50068
G1 X150.661 Y117.978 E0.01955
G1 X140.978 Y127.661 E0.46425
G1 X140.978 Y127.085 E0.01955
G1 X150.085 Y117.978 E0.43661
G1 X149.508 Y117.978 E0.01955
G1 X140.978 Y126.508 E0.40896
G1 X140.978 Y125.932 E0.01955
G1 X148.932 Y117.978 E0.38132
G1 X148.355 Y117.978 E0.01955
G1 X140.978 Y125.355 E0.35367
G1 X140.978 Y124.778 E0.01955
G1 X147.778 Y117.978 E0.32603
G1 X147.202 Y117.978 E0.01955
G1 X140.978 Y124.202 E0.29839
G1 X140.978 Y123.625 E0.01955
G1 X146.625 Y117.978 E0.27074
G1 X146.049 Y117.978 E0.01955
G1 X140.978 Y123.049 E0.24310
G1 X140.978 Y122.472 E0.01955
G1 X145.472 Y117.978 E0.21545
G1 X144.895 Y117.978 E0.01955
G1 X140.978 Y121.895 E0.18781
G1 X140.978 Y121.319 E0.01955
G1 X144.319 Y117.978 E0.16017
G1 X143.742 Y117.978 E0.01955
G1 X140.978 Y120.742 E0.13252
G1 X140.978 Y120.166 E0.01955
G1 X143.166 Y117.978 E0.10488
G1 X142.589 Y117.978 E0.01955
G1 X140.978 Y119.589 E0.07723
G1 X140.978 Y119.012 E0.01955
G1 X142.012 Y117.978 E0.04959
G1 X141.436 Y117.978 E0.01955
G1 X140.795 Y118.619 E0.03073
G1 E-2.00000
G1 Z1.000 F9000.000
G1 X153.597 Y131.763
G1 Z0.400
G1 E2.10000 F1200.00000
G1 F2400.000
G1 X159.022 Y126.339 E0.26009
G1 X159.022 Y125.762 E0.01955
G1 X153.780 Y131.004 E0.25130
G1 X153.780 Y130.427 E0.01955
G1 X159.022 Y125.185 E0.25130
G1 X159.022 Y124.609 E0.01955
G1 X153.780 Y129.850 E0.25130
G1 X153.780 Y129.519 E0.01123
G1 X153.670 Y129.384 E0.00591
G1 X159.022 Y124.032 E0.25657
G1 X159.022 Y123.456 E0.01955
G1 X153.413 Y129.065 E0.26894
G1 X153.155 Y128.746 E0.01390
G1 X159.022 Y122.879 E0.28130
G1 X159.022 Y122.302 E0.01955
G1 X152.897 Y128.428 E0.29367
G1 X152.639 Y128.109 E0.01390
G1 X159.022 Y121.726 E0.30604
G1 X159.022 Y121.149 E0.01955
G1 X152.381 Y127.791 E0.31841
G1 X152.123 Y127.472 E0.01390
G1 X159.022 Y120.573 E0.33078
G1 X159.022 Y119.996 E0.01955
G1 X153.355 Y125.663 E0.27167
G1 X153.355 Y125.086 E0.01955
G1 X159.022 Y119.420 E0.27167
G1 X159.022 Y118.843 E0.01955
G1 X153.355 Y124.509 E0.27167
G1 X153.355 Y123.933 E0.01955
G1 X159.022 Y118.266 E0.27167
G1 X159.022 Y117.978 E0.00977
G1 X158.734 Y117.978 E0.00978
G1 X153.355 Y123.356 E0.25785
G1 X153.355 Y123.033 E0.01096
G1 X153.102 Y123.033 E0.00859
G1 X158.157 Y117.978 E0.24235
G1 X157.580 Y117.978 E0.01955
G1 X152.525 Y123.033 E0.24235
G1 X151.949 Y123.033 E0.01955
G1 X157.004 Y117.978 E0.24235
G1 X156.427 Y117.978 E0.01955
G1 X151.372 Y123.033 E0.24235
G1 X150.796 Y123.033 E0.01955
G1 X155.851 Y117.978 E0.24235
G1 X155.274 Y117.978 E0.01955
G1 X150.219 Y123.033 E0.24235
G1 X149.643 Y123.033 E0.01955
G1 X154.697 Y117.978 E0.24235
G1 X154.121 Y117.978 E0.01955
G1 X149.066 Y123.033 E0.24235
G1 X148.489 Y123.033 E0.01955
G1 X153.544 Y117.978 E0.24235
G1 X152.968 Y117.978 E0.01955
G1 X147.913 Y123.033 E0.24235
G1 X147.336 Y123.033 E0.01955
G1 X152.391 Y117.978 E0.24235
G1 X151.814 Y117.978 E0.01955
G1 X146.576 Y123.216 E0.25113
G1 E-2.00000
G1 Z1.000 F9000.000
G1 X151.848 Y126.017
G1 Z0.400
G1 E2.10000 F1200.00000
G1 F2400.000
G1 X151.349 Y126.516 E0.02393
G1 X151.607 Y126.835 E0.01390
G1 X152.241 Y126.200 E0.03043
G1 X152.818 Y126.200 E0.01955
G1 X151.734 Y127.284 E0.05195
G1 E-2.00000
G1 Z1.000 F9000.000
G1 X148.697 Y129.168
G1 Z0.400
G1 E2.10000 F1200.00000
G1 F2400.000
G1 X148.949 Y128.916 E0.01210
G1 X148.690 Y128.598 E0.01390
G1 X148.303 Y128.985 E0.01857
G1 X147.727 Y128.985 E0.01955
G1 X148.432 Y128.280 E0.03383
G1 X148.174 Y127.961 E0.01390
G1 X147.150 Y128.985 E0.04908
G1 X146.573 Y128.985 E0.01955
G1 X147.915 Y127.643 E0.06434
G1 X147.657 Y127.325 E0.01390
G1 X140.978 Y134.004 E0.32021
